(Generated By: Line Grinder Version: 01.03)
(Home Page: http://www.OfItselfSo.com/LineGrinder/LineGrinder.php)
(Date Generated: Monday, 14 March 2011 14:13)

(The Line Grinder software is released under the MIT License. There)
(is no warranty or guarantee that the GCode files it produces)
(are without error. You use it, and run its output code entirely)
(at your own risk. In particular: )

(THE LINE GRINDER SOFTWARE, AND THE OUTPUT CODE IT GENERATES, ARE )
(PROVIDED "AS IS", WITHOUT WARRANTY OF ANY KIND, EXPRESS OR )
(IMPLIED, INCLUDING BUT NOT LIMITED TO THE WARRANTIES OF )
(MERCHANTABILITY, FITNESS FOR A PARTICULAR PURPOSE AND )
(NONINFRINGEMENT. IN NO EVENT SHALL THE AUTHORS OR COPYRIGHT )
(HOLDERS BE LIABLE FOR ANY CLAIM, DAMAGES OR OTHER LIABILITY, )
(WHETHER IN AN ACTION OF CONTRACT, TORT OR OTHERWISE, ARISING )
(FROM, OUT OF OR IN CONNECTION WITH THE SOFTWARE OR ITS OUTPUT)
(OR FROM THE USE OR OTHER DEALINGS IN THE SOFTWARE. )

G20 (Use Inches)
G90 (Set Absolute Coordinates)
G17 (XY plane selection)
G00 Z0.25
G00 X0 Y0
M03 (Start spindle)
G04 P1 (Pause to let the spindle start)
(ToolTable: Tool 1, Dia= 0.024)
(ToolTable: Tool 2, Dia= 0.025)
(ToolTable: Tool 3, Dia= 0.035)
M05
T1 (ToolChange, ToolNum: 1, Drill Dia:0.024)
M6
M03
G00 X0.608 Y0.408
G01 Z-0.2 F20
G00 Z0.25
G00 X1.758 Y1.658
G01 Z-0.2
G00 Z0.25
M05
T2 (ToolChange, ToolNum: 2, Drill Dia:0.025)
M6
M03
G00 X0.208 Y0.708
G01 Z-0.2
G00 Z0.25
G00 X0.208 Y0.808
G01 Z-0.2
G00 Z0.25
G00 X0.208 Y0.908
G01 Z-0.2
G00 Z0.25
G00 X0.208 Y1.008
G01 Z-0.2
G00 Z0.25
G00 X0.208 Y1.108
G01 Z-0.2
G00 Z0.25
G00 X0.208 Y1.208
G01 Z-0.2
G00 Z0.25
G00 X0.208 Y1.308
G01 Z-0.2
G00 Z0.25
G00 X0.208 Y1.408
G01 Z-0.2
G00 Z0.25
G00 X0.508 Y0.708
G01 Z-0.2
G00 Z0.25
G00 X0.508 Y0.808
G01 Z-0.2
G00 Z0.25
G00 X0.508 Y0.908
G01 Z-0.2
G00 Z0.25
G00 X0.508 Y1.008
G01 Z-0.2
G00 Z0.25
G00 X0.508 Y1.108
G01 Z-0.2
G00 Z0.25
G00 X0.508 Y1.208
G01 Z-0.2
G00 Z0.25
G00 X0.508 Y1.308
G01 Z-0.2
G00 Z0.25
G00 X0.508 Y1.408
G01 Z-0.2
G00 Z0.25
G00 X0.758 Y0.208
G01 Z-0.2
G00 Z0.25
G00 X0.758 Y0.508
G01 Z-0.2
G00 Z0.25
G00 X0.758 Y1.608
G01 Z-0.2
G00 Z0.25
G00 X0.758 Y1.908
G01 Z-0.2
G00 Z0.25
G00 X0.858 Y0.208
G01 Z-0.2
G00 Z0.25
G00 X0.858 Y0.508
G01 Z-0.2
G00 Z0.25
G00 X0.858 Y1.608
G01 Z-0.2
G00 Z0.25
G00 X0.858 Y1.908
G01 Z-0.2
G00 Z0.25
G00 X0.958 Y0.208
G01 Z-0.2
G00 Z0.25
G00 X0.958 Y0.508
G01 Z-0.2
G00 Z0.25
G00 X0.958 Y1.608
G01 Z-0.2
G00 Z0.25
G00 X0.958 Y1.908
G01 Z-0.2
G00 Z0.25
G00 X1.058 Y0.208
G01 Z-0.2
G00 Z0.25
G00 X1.058 Y0.508
G01 Z-0.2
G00 Z0.25
G00 X1.058 Y1.608
G01 Z-0.2
G00 Z0.25
G00 X1.058 Y1.908
G01 Z-0.2
G00 Z0.25
G00 X1.158 Y0.208
G01 Z-0.2
G00 Z0.25
G00 X1.158 Y0.508
G01 Z-0.2
G00 Z0.25
G00 X1.158 Y1.608
G01 Z-0.2
G00 Z0.25
G00 X1.158 Y1.908
G01 Z-0.2
G00 Z0.25
G00 X1.258 Y0.208
G01 Z-0.2
G00 Z0.25
G00 X1.258 Y0.508
G01 Z-0.2
G00 Z0.25
G00 X1.258 Y1.608
G01 Z-0.2
G00 Z0.25
G00 X1.258 Y1.908
G01 Z-0.2
G00 Z0.25
G00 X1.358 Y0.208
G01 Z-0.2
G00 Z0.25
G00 X1.358 Y0.508
G01 Z-0.2
G00 Z0.25
G00 X1.358 Y1.608
G01 Z-0.2
G00 Z0.25
G00 X1.358 Y1.908
G01 Z-0.2
G00 Z0.25
G00 X1.458 Y0.208
G01 Z-0.2
G00 Z0.25
G00 X1.458 Y0.508
G01 Z-0.2
G00 Z0.25
G00 X1.458 Y1.608
G01 Z-0.2
G00 Z0.25
G00 X1.458 Y1.908
G01 Z-0.2
G00 Z0.25
G00 X1.658 Y0.708
G01 Z-0.2
G00 Z0.25
G00 X1.658 Y0.808
G01 Z-0.2
G00 Z0.25
G00 X1.658 Y0.908
G01 Z-0.2
G00 Z0.25
G00 X1.658 Y1.008
G01 Z-0.2
G00 Z0.25
G00 X1.658 Y1.108
G01 Z-0.2
G00 Z0.25
G00 X1.658 Y1.208
G01 Z-0.2
G00 Z0.25
G00 X1.658 Y1.308
G01 Z-0.2
G00 Z0.25
G00 X1.658 Y1.408
G01 Z-0.2
G00 Z0.25
G00 X1.958 Y0.708
G01 Z-0.2
G00 Z0.25
G00 X1.958 Y0.808
G01 Z-0.2
G00 Z0.25
G00 X1.958 Y0.908
G01 Z-0.2
G00 Z0.25
G00 X1.958 Y1.008
G01 Z-0.2
G00 Z0.25
G00 X1.958 Y1.108
G01 Z-0.2
G00 Z0.25
G00 X1.958 Y1.208
G01 Z-0.2
G00 Z0.25
G00 X1.958 Y1.308
G01 Z-0.2
G00 Z0.25
G00 X1.958 Y1.408
G01 Z-0.2
G00 Z0.25
M05
T3 (ToolChange, ToolNum: 3, Drill Dia:0.035)
M6
M03
G00 X0.158 Y0.158
G01 Z-0.2
G00 Z0.25
G00 X0.158 Y0.608
G01 Z-0.2
G00 Z0.25
G00 X0.158 Y1.758
G01 Z-0.2
G00 Z0.25
G00 X0.158 Y1.958
G01 Z-0.2
G00 Z0.25
G00 X0.258 Y0.608
G01 Z-0.2
G00 Z0.25
G00 X0.308 Y1.708
G01 Z-0.2
G00 Z0.25
G00 X0.358 Y0.608
G01 Z-0.2
G00 Z0.25
G00 X0.458 Y0.608
G01 Z-0.2
G00 Z0.25
G00 X0.558 Y1.758
G01 Z-0.2
G00 Z0.25
G00 X0.658 Y0.158
G01 Z-0.2
G00 Z0.25
G00 X0.658 Y0.258
G01 Z-0.2
G00 Z0.25
G00 X0.658 Y0.358
G01 Z-0.2
G00 Z0.25
G00 X0.658 Y0.458
G01 Z-0.2
G00 Z0.25
G00 X1.558 Y1.658
G01 Z-0.2
G00 Z0.25
G00 X1.558 Y1.758
G01 Z-0.2
G00 Z0.25
G00 X1.558 Y1.858
G01 Z-0.2
G00 Z0.25
G00 X1.558 Y1.958
G01 Z-0.2
G00 Z0.25
G00 X1.658 Y0.358
G01 Z-0.2
G00 Z0.25
G00 X1.708 Y1.558
G01 Z-0.2
G00 Z0.25
G00 X1.758 Y0.508
G01 Z-0.2
G00 Z0.25
G00 X1.808 Y1.558
G01 Z-0.2
G00 Z0.25
G00 X1.908 Y1.558
G01 Z-0.2
G00 Z0.25
G00 X1.958 Y0.158
G01 Z-0.2
G00 Z0.25
G00 X1.958 Y0.558
G01 Z-0.2
G00 Z0.25
G00 X1.958 Y1.958
G01 Z-0.2
G00 Z0.25
G00 X2.008 Y1.558
G01 Z-0.2
G00 Z0.25
G00 Z0.25
G00 X0 Y0
M05 (Stop spindle)
M02 (Program End)

