(Generated By: Line Grinder Version: 01.03)
(Home Page: http://www.OfItselfSo.com/LineGrinder/LineGrinder.php)
(Generated from file: C:\Projects\LineGrinder - Template\Examples - DesignSpark\LGTest - Bottom Copper.gbr)
(Date Generated: Monday, 14 March 2011 14:12)

(The Line Grinder software is released under the MIT License. There)
(is no warranty or guarantee that the GCode files it produces)
(are without error. You use it, and run its output code entirely)
(at your own risk. In particular: )

(THE LINE GRINDER SOFTWARE, AND THE OUTPUT CODE IT GENERATES, ARE )
(PROVIDED "AS IS", WITHOUT WARRANTY OF ANY KIND, EXPRESS OR )
(IMPLIED, INCLUDING BUT NOT LIMITED TO THE WARRANTIES OF )
(MERCHANTABILITY, FITNESS FOR A PARTICULAR PURPOSE AND )
(NONINFRINGEMENT. IN NO EVENT SHALL THE AUTHORS OR COPYRIGHT )
(HOLDERS BE LIABLE FOR ANY CLAIM, DAMAGES OR OTHER LIABILITY, )
(WHETHER IN AN ACTION OF CONTRACT, TORT OR OTHERWISE, ARISING )
(FROM, OUT OF OR IN CONNECTION WITH THE SOFTWARE OR ITS OUTPUT)
(OR FROM THE USE OR OTHER DEALINGS IN THE SOFTWARE. )

G20 (Use Inches)
G90 (Set Absolute Coordinates)
G17 (XY plane selection)
G00 Z0.25
G00 X0 Y0
M03 (Start spindle)
G04 P1 (Pause to let the spindle start)
G00 X1.688 Y0.695
G01 Z-0.002 F20
G01 X1.758 Y0.695 F15
G01 X1.758 Y0.696
G03 X1.77 Y0.708 I0 J0.012
G03 X1.751 Y0.718 I-0.012 J0
G01 X1.764 Y0.718
G01 X1.718 Y0.764
G03 X1.708 Y0.77 I-0.01 J-0.006
G01 X0.358 Y0.77
G03 X0.37 Y0.758 I0 J-0.012
G01 X0.346 Y0.758
G01 X0.346 Y0.708
G03 X0.358 Y0.696 I0.012 J0
G01 X0.358 Y0.695
G01 X0.378 Y0.695
G01 X0.378 Y0.678
G01 X0.538 Y0.678
G01 X0.538 Y0.738
G01 X0.378 Y0.738
G01 X0.378 Y0.72
G01 X0.371 Y0.72
G01 X0.371 Y0.745
G01 X1.703 Y0.745
G01 X1.728 Y0.72
G01 X1.688 Y0.72
G01 X1.688 Y0.738
G01 X1.528 Y0.738
G01 X1.528 Y0.678
G01 X1.688 Y0.678
G01 X1.688 Y0.695
G01 Z0.1 F20
G00 X0.538 Y0.795
G01 Z-0.002
G01 X1.528 Y0.795 F15
G01 X1.528 Y0.778
G01 X1.688 Y0.778
G01 X1.688 Y0.838
G01 X1.528 Y0.838
G01 X1.528 Y0.82
G01 X0.538 Y0.82
G01 X0.538 Y0.838
G01 X0.378 Y0.838
G01 X0.378 Y0.778
G01 X0.538 Y0.778
G01 X0.538 Y0.795
G01 Z0.1 F20
G00 X1.688 Y0.895
G01 Z-0.002
G01 X1.708 Y0.895 F15
G01 X1.708 Y0.896
G03 X1.72 Y0.908 I0 J0.012
G01 X1.721 Y0.908
G01 X1.721 Y0.958
G01 X1.72 Y0.958
G03 X1.708 Y0.97 I-0.012 J0
G01 X0.358 Y0.97
G03 X0.37 Y0.958 I0 J-0.012
G01 X0.346 Y0.958
G01 X0.346 Y0.908
G03 X0.358 Y0.896 I0.012 J0
G01 X0.358 Y0.895
G01 X0.378 Y0.895
G01 X0.378 Y0.878
G01 X0.538 Y0.878
G01 X0.538 Y0.938
G01 X0.378 Y0.938
G01 X0.378 Y0.92
G01 X0.371 Y0.92
G01 X0.371 Y0.945
G01 X1.696 Y0.945
G01 X1.696 Y0.92
G01 X1.688 Y0.92
G01 X1.688 Y0.938
G01 X1.528 Y0.938
G01 X1.528 Y0.878
G01 X1.688 Y0.878
G01 X1.688 Y0.895
G01 Z0.1 F20
G00 X0.538 Y0.995
G01 Z-0.002
G01 X1.528 Y0.995 F15
G01 X1.528 Y0.978
G01 X1.688 Y0.978
G01 X1.688 Y1.038
G01 X1.528 Y1.038
G01 X1.528 Y1.02
G01 X0.538 Y1.02
G01 X0.538 Y1.038
G01 X0.378 Y1.038
G01 X0.378 Y0.978
G01 X0.538 Y0.978
G01 X0.538 Y0.995
G01 Z0.1 F20
G00 X1.688 Y1.095
G01 Z-0.002
G01 X1.696 Y1.095 F15
G01 X1.696 Y1.07
G01 X0.371 Y1.07
G01 X0.371 Y1.095
G01 X0.378 Y1.095
G01 X0.378 Y1.078
G01 X0.538 Y1.078
G01 X0.538 Y1.138
G01 X0.378 Y1.138
G01 X0.378 Y1.12
G01 X0.358 Y1.12
G03 X0.37 Y1.108 I0 J-0.012
G01 X0.346 Y1.108
G01 X0.346 Y1.058
G03 X0.358 Y1.046 I0.012 J0
G01 X0.358 Y1.045
G01 X1.708 Y1.045
G01 X1.708 Y1.046
G03 X1.72 Y1.058 I0 J0.012
G01 X1.721 Y1.058
G01 X1.721 Y1.108
G01 X1.72 Y1.108
G03 X1.708 Y1.12 I-0.012 J0
G01 X1.688 Y1.12
G01 X1.688 Y1.138
G01 X1.528 Y1.138
G01 X1.528 Y1.078
G01 X1.688 Y1.078
G01 X1.688 Y1.095
G01 Z0.1 F20
G00 X0.538 Y1.295
G01 Z-0.002
G01 X1.528 Y1.295 F15
G01 X1.528 Y1.278
G01 X1.688 Y1.278
G01 X1.688 Y1.338
G01 X1.528 Y1.338
G01 X1.528 Y1.32
G01 X0.538 Y1.32
G01 X0.538 Y1.338
G01 X0.378 Y1.338
G01 X0.378 Y1.278
G01 X0.538 Y1.278
G01 X0.538 Y1.295
G01 Z0.1 F20
G00 X1.458 Y0.395
G01 Z-0.002
G01 X1.482 Y0.395 F15
G03 X1.537 Y0.408 I0.026 J0.013
G03 X1.533 Y0.394 I-0.029 J0
G01 X1.482 Y0.42
G01 X1.471 Y0.42
G01 X1.471 Y0.426
G03 X1.493 Y0.458 I-0.013 J0.032
G03 X1.49 Y0.444 I-0.035 J0
G01 X1.446 Y0.425
G01 X1.446 Y0.408
G03 X1.458 Y0.396 I0.012 J0
G01 X1.458 Y0.395
G01 Z0.1 F20
G00 X0.363 Y1.745
G01 Z-0.002
G01 X0.526 Y1.745 F15
G03 X0.593 Y1.758 I0.032 J0.013
G03 X0.59 Y1.745 I-0.035 J0
G01 X0.525 Y1.77
G01 X0.358 Y1.77
G03 X0.367 Y1.75 I0 J-0.012
G01 X0.348 Y1.764
G01 X0.302 Y1.718
G03 X0.32 Y1.708 I0.006 J-0.01
G01 X0.296 Y1.708
G01 X0.296 Y1.591
G03 X0.343 Y1.558 I0.012 J-0.033
G03 X0.332 Y1.533 I-0.035 J0
G01 X0.321 Y1.59
G01 X0.321 Y1.703
G01 X0.363 Y1.745
G01 Z0.1 F20
G00 X0.363 Y1.845
G01 Z-0.002
G01 X0.526 Y1.845 F15
G03 X0.593 Y1.858 I0.032 J0.013
G03 X0.59 Y1.845 I-0.035 J0
G01 X0.525 Y1.87
G01 X0.358 Y1.87
G03 X0.367 Y1.85 I0 J-0.012
G01 X0.348 Y1.864
G01 X0.202 Y1.718
G03 X0.22 Y1.708 I0.006 J-0.01
G01 X0.196 Y1.708
G01 X0.196 Y1.591
G03 X0.243 Y1.558 I0.012 J-0.033
G03 X0.232 Y1.533 I-0.035 J0
G01 X0.221 Y1.59
G01 X0.221 Y1.703
G01 X0.363 Y1.845
G01 Z0.1 F20
G00 X0.413 Y1.945
G01 Z-0.002
G01 X0.526 Y1.945 F15
G03 X0.593 Y1.958 I0.032 J0.013
G03 X0.59 Y1.945 I-0.035 J0
G01 X0.525 Y1.97
G01 X0.408 Y1.97
G03 X0.417 Y1.95 I0 J-0.012
G01 X0.398 Y1.964
G01 X0.102 Y1.668
G03 X0.12 Y1.658 I0.006 J-0.01
G01 X0.096 Y1.658
G01 X0.096 Y1.591
G03 X0.143 Y1.558 I0.012 J-0.033
G03 X0.132 Y1.533 I-0.035 J0
G01 X0.121 Y1.59
G01 X0.121 Y1.653
G01 X0.413 Y1.945
G01 Z0.1 F20
G00 X0.358 Y1.195
G01 Z-0.002
G01 X0.378 Y1.195 F15
G01 X0.378 Y1.178
G01 X0.538 Y1.178
G01 X0.538 Y1.238
G01 X0.378 Y1.238
G01 X0.378 Y1.22
G01 X0.371 Y1.22
G01 X0.371 Y1.245
G01 X1.696 Y1.245
G01 X1.696 Y1.22
G01 X1.688 Y1.22
G01 X1.688 Y1.238
G01 X1.528 Y1.238
G01 X1.528 Y1.178
G01 X1.688 Y1.178
G01 X1.688 Y1.195
G01 X1.708 Y1.195
G01 X1.708 Y1.196
G03 X1.72 Y1.208 I0 J0.012
G01 X1.721 Y1.208
G01 X1.721 Y1.258
G01 X1.72 Y1.258
G03 X1.708 Y1.27 I-0.012 J0
G01 X0.358 Y1.27
G03 X0.37 Y1.258 I0 J-0.012
G01 X0.346 Y1.258
G01 X0.346 Y1.208
G03 X0.358 Y1.196 I0.012 J0
G01 X0.358 Y1.195
G01 Z0.1 F20
G00 X0.363 Y1.395
G01 Z-0.002
G01 X0.378 Y1.395 F15
G01 X0.378 Y1.378
G01 X0.538 Y1.378
G01 X0.538 Y1.438
G01 X0.378 Y1.438
G01 X0.378 Y1.42
G01 X0.358 Y1.42
G03 X0.367 Y1.4 I0 J-0.012
G01 X0.348 Y1.414
G01 X0.302 Y1.368
G03 X0.308 Y1.346 I0.006 J-0.01
G01 X0.308 Y1.345
G01 X1.708 Y1.345
G01 X1.708 Y1.346
G03 X1.72 Y1.358 I0 J0.012
G01 X1.721 Y1.358
G01 X1.721 Y1.408
G01 X1.72 Y1.408
G03 X1.708 Y1.42 I-0.012 J0
G01 X1.688 Y1.42
G01 X1.688 Y1.438
G01 X1.528 Y1.438
G01 X1.528 Y1.378
G01 X1.688 Y1.378
G01 X1.688 Y1.395
G01 X1.696 Y1.395
G01 X1.696 Y1.37
G01 X0.338 Y1.37
G01 X0.363 Y1.395
G01 Z0.1 F20
G00 X0.358 Y1.545
G01 Z-0.002
G01 X0.376 Y1.545 F15
G03 X0.443 Y1.558 I0.032 J0.013
G03 X0.44 Y1.545 I-0.035 J0
G01 X0.375 Y1.57
G01 X0.371 Y1.57
G01 X0.371 Y1.632
G03 X0.387 Y1.658 I-0.013 J0.026
G03 X0.361 Y1.629 I-0.029 J0
G01 X0.346 Y1.632
G01 X0.346 Y1.558
G03 X0.358 Y1.546 I0.012 J0
G01 X0.358 Y1.545
G01 Z0.1 F20
G00 X0.371 Y0.408
G01 Z-0.002
G01 X0.371 Y0.476 F15
G03 X0.393 Y0.508 I-0.013 J0.032
G03 X0.39 Y0.494 I-0.035 J0
G01 X0.346 Y0.475
G01 X0.346 Y0.412
G01 X0.271 Y0.337
G01 X0.188 Y0.42
G01 X0.188 Y0.54
G03 X0.193 Y0.558 I-0.03 J0.018
G03 X0.185 Y0.58 I-0.035 J0
G01 X0.128 Y0.54
G01 X0.128 Y0.408
G03 X0.158 Y0.438 I0.03 J0
G01 X0.137 Y0.387
G01 X0.237 Y0.287
G01 X0.337 Y0.187
G03 X0.351 Y0.237 I0.021 J0.021
G01 X0.371 Y0.181
G01 X0.471 Y0.231
G03 X0.488 Y0.258 I-0.013 J0.027
G01 X0.488 Y0.34
G03 X0.493 Y0.358 I-0.03 J0.018
G03 X0.485 Y0.38 I-0.035 J0
G01 X0.428 Y0.34
G01 X0.428 Y0.276
G01 X0.364 Y0.244
G01 X0.288 Y0.32
G01 X0.367 Y0.399
G01 Z0.1 F20
G00 X0.37 Y0.408
G01 Z-0.002
G01 X0.371 Y0.408 F15
G01 Z0.1 F20
G00 X1.168 Y0.288
G01 Z-0.002
G01 X1.168 Y0.308 F15
G03 X1.158 Y0.318 I-0.01 J0
G01 X1.165 Y0.315
G01 X1.118 Y0.362
G01 X1.118 Y0.648
G01 X1.198 Y0.648
G01 X1.198 Y0.308
G03 X1.208 Y0.298 I0.01 J0
G01 X1.248 Y0.298
G01 X1.248 Y0.288
G01 X1.228 Y0.288
G01 X1.228 Y0.128
G01 X1.288 Y0.128
G01 X1.288 Y0.288
G01 X1.268 Y0.288
G01 X1.268 Y0.308
G03 X1.258 Y0.318 I-0.01 J0
G01 X1.218 Y0.318
G01 X1.218 Y0.658
G03 X1.208 Y0.668 I-0.01 J0
G01 X1.108 Y0.668
G03 X1.118 Y0.658 I0 J-0.01
G01 X1.098 Y0.658
G01 X1.098 Y0.358
G03 X1.108 Y0.368 I0.01 J0
G01 X1.101 Y0.351
G01 X1.148 Y0.304
G01 X1.148 Y0.288
G01 X1.128 Y0.288
G01 X1.128 Y0.128
G01 X1.188 Y0.128
G01 X1.188 Y0.288
G01 X1.168 Y0.288
G01 Z0.1 F20
G00 X0.868 Y0.288
G01 Z-0.002
G01 X0.868 Y0.304 F15
G01 X0.915 Y0.351
G03 X0.918 Y0.358 I-0.007 J0.007
G01 X0.918 Y0.648
G01 X0.998 Y0.648
G01 X0.998 Y0.362
G01 X0.951 Y0.315
G03 X0.968 Y0.308 I0.007 J-0.007
G01 X0.948 Y0.308
G01 X0.948 Y0.288
G01 X0.928 Y0.288
G01 X0.928 Y0.128
G01 X0.988 Y0.128
G01 X0.988 Y0.288
G01 X0.968 Y0.288
G01 X0.968 Y0.304
G01 X1.015 Y0.351
G03 X1.018 Y0.358 I-0.007 J0.007
G01 X1.018 Y0.658
G03 X1.008 Y0.668 I-0.01 J0
G01 X0.908 Y0.668
G03 X0.918 Y0.658 I0 J-0.01
G01 X0.898 Y0.658
G01 X0.898 Y0.362
G01 X0.851 Y0.315
G03 X0.868 Y0.308 I0.007 J-0.007
G01 X0.848 Y0.308
G01 X0.848 Y0.288
G01 X0.828 Y0.288
G01 X0.828 Y0.128
G01 X0.888 Y0.128
G01 X0.888 Y0.288
G01 X0.868 Y0.288
G01 Z0.1 F20
G00 X1.328 Y0.128
G01 Z-0.002
G01 X1.388 Y0.128 F15
G01 X1.388 Y0.288
G01 X1.328 Y0.288
G01 X1.328 Y0.128
G01 Z0.1 F20
G00 X1.328 Y0.428
G01 Z-0.002
G01 X1.388 Y0.428 F15
G01 X1.388 Y0.588
G01 X1.328 Y0.588
G01 X1.328 Y0.428
G01 Z0.1 F20
G00 X1.328 Y1.528
G01 Z-0.002
G01 X1.388 Y1.528 F15
G01 X1.388 Y1.688
G01 X1.328 Y1.688
G01 X1.328 Y1.528
G01 Z0.1 F20
G00 X1.328 Y1.828
G01 Z-0.002
G01 X1.388 Y1.828 F15
G01 X1.388 Y1.988
G01 X1.328 Y1.988
G01 X1.328 Y1.828
G01 Z0.1 F20
G00 X1.228 Y0.428
G01 Z-0.002
G01 X1.288 Y0.428 F15
G01 X1.288 Y0.588
G01 X1.228 Y0.588
G01 X1.228 Y0.428
G01 Z0.1 F20
G00 X1.228 Y1.528
G01 Z-0.002
G01 X1.288 Y1.528 F15
G01 X1.288 Y1.688
G01 X1.228 Y1.688
G01 X1.228 Y1.528
G01 Z0.1 F20
G00 X1.228 Y1.828
G01 Z-0.002
G01 X1.288 Y1.828 F15
G01 X1.288 Y1.988
G01 X1.228 Y1.988
G01 X1.228 Y1.828
G01 Z0.1 F20
G00 X1.128 Y0.428
G01 Z-0.002
G01 X1.188 Y0.428 F15
G01 X1.188 Y0.588
G01 X1.128 Y0.588
G01 X1.128 Y0.428
G01 Z0.1 F20
G00 X1.128 Y1.528
G01 Z-0.002
G01 X1.188 Y1.528 F15
G01 X1.188 Y1.688
G01 X1.128 Y1.688
G01 X1.128 Y1.528
G01 Z0.1 F20
G00 X1.128 Y1.828
G01 Z-0.002
G01 X1.188 Y1.828 F15
G01 X1.188 Y1.988
G01 X1.128 Y1.988
G01 X1.128 Y1.828
G01 Z0.1 F20
G00 X1.028 Y0.128
G01 Z-0.002
G01 X1.088 Y0.128 F15
G01 X1.088 Y0.288
G01 X1.028 Y0.288
G01 X1.028 Y0.128
G01 Z0.1 F20
G00 X1.028 Y0.428
G01 Z-0.002
G01 X1.088 Y0.428 F15
G01 X1.088 Y0.588
G01 X1.028 Y0.588
G01 X1.028 Y0.428
G01 Z0.1 F20
G00 X1.028 Y1.528
G01 Z-0.002
G01 X1.088 Y1.528 F15
G01 X1.088 Y1.688
G01 X1.028 Y1.688
G01 X1.028 Y1.528
G01 Z0.1 F20
G00 X1.028 Y1.828
G01 Z-0.002
G01 X1.088 Y1.828 F15
G01 X1.088 Y1.988
G01 X1.028 Y1.988
G01 X1.028 Y1.828
G01 Z0.1 F20
G00 X0.928 Y0.428
G01 Z-0.002
G01 X0.988 Y0.428 F15
G01 X0.988 Y0.588
G01 X0.928 Y0.588
G01 X0.928 Y0.428
G01 Z0.1 F20
G00 X0.928 Y1.528
G01 Z-0.002
G01 X0.988 Y1.528 F15
G01 X0.988 Y1.688
G01 X0.928 Y1.688
G01 X0.928 Y1.528
G01 Z0.1 F20
G00 X0.928 Y1.828
G01 Z-0.002
G01 X0.988 Y1.828 F15
G01 X0.988 Y1.988
G01 X0.928 Y1.988
G01 X0.928 Y1.828
G01 Z0.1 F20
G00 X0.828 Y0.428
G01 Z-0.002
G01 X0.888 Y0.428 F15
G01 X0.888 Y0.588
G01 X0.828 Y0.588
G01 X0.828 Y0.428
G01 Z0.1 F20
G00 X0.828 Y1.528
G01 Z-0.002
G01 X0.888 Y1.528 F15
G01 X0.888 Y1.688
G01 X0.828 Y1.688
G01 X0.828 Y1.528
G01 Z0.1 F20
G00 X0.828 Y1.828
G01 Z-0.002
G01 X0.888 Y1.828 F15
G01 X0.888 Y1.988
G01 X0.828 Y1.988
G01 X0.828 Y1.828
G01 Z0.1 F20
G00 X0.728 Y0.128
G01 Z-0.002
G01 X0.788 Y0.128 F15
G01 X0.788 Y0.288
G01 X0.728 Y0.288
G01 X0.728 Y0.128
G01 Z0.1 F20
G00 X0.728 Y0.428
G01 Z-0.002
G01 X0.788 Y0.428 F15
G01 X0.788 Y0.588
G01 X0.728 Y0.588
G01 X0.728 Y0.428
G01 Z0.1 F20
G00 X0.728 Y1.528
G01 Z-0.002
G01 X0.788 Y1.528 F15
G01 X0.788 Y1.688
G01 X0.728 Y1.688
G01 X0.728 Y1.528
G01 Z0.1 F20
G00 X0.728 Y1.828
G01 Z-0.002
G01 X0.788 Y1.828 F15
G01 X0.788 Y1.988
G01 X0.728 Y1.988
G01 X0.728 Y1.828
G01 Z0.1 F20
G00 X0.628 Y0.128
G01 Z-0.002
G01 X0.688 Y0.128 F15
G01 X0.688 Y0.288
G01 X0.628 Y0.288
G01 X0.628 Y0.128
G01 Z0.1 F20
G00 X0.628 Y0.428
G01 Z-0.002
G01 X0.688 Y0.428 F15
G01 X0.688 Y0.588
G01 X0.628 Y0.588
G01 X0.628 Y0.428
G01 Z0.1 F20
G00 X0.628 Y1.528
G01 Z-0.002
G01 X0.688 Y1.528 F15
G01 X0.688 Y1.688
G01 X0.628 Y1.688
G01 X0.628 Y1.528
G01 Z0.1 F20
G00 X0.628 Y1.828
G01 Z-0.002
G01 X0.688 Y1.828 F15
G01 X0.688 Y1.988
G01 X0.628 Y1.988
G01 X0.628 Y1.828
G01 Z0.1 F20
G00 X1.828 Y0.678
G01 Z-0.002
G01 X1.988 Y0.678 F15
G01 X1.988 Y0.738
G01 X1.828 Y0.738
G01 X1.828 Y0.678
G01 Z0.1 F20
G00 X1.828 Y0.778
G01 Z-0.002
G01 X1.988 Y0.778 F15
G01 X1.988 Y0.838
G01 X1.828 Y0.838
G01 X1.828 Y0.778
G01 Z0.1 F20
G00 X1.828 Y0.878
G01 Z-0.002
G01 X1.988 Y0.878 F15
G01 X1.988 Y0.938
G01 X1.828 Y0.938
G01 X1.828 Y0.878
G01 Z0.1 F20
G00 X1.828 Y0.978
G01 Z-0.002
G01 X1.988 Y0.978 F15
G01 X1.988 Y1.038
G01 X1.828 Y1.038
G01 X1.828 Y0.978
G01 Z0.1 F20
G00 X1.828 Y1.078
G01 Z-0.002
G01 X1.988 Y1.078 F15
G01 X1.988 Y1.138
G01 X1.828 Y1.138
G01 X1.828 Y1.078
G01 Z0.1 F20
G00 X1.828 Y1.178
G01 Z-0.002
G01 X1.988 Y1.178 F15
G01 X1.988 Y1.238
G01 X1.828 Y1.238
G01 X1.828 Y1.178
G01 Z0.1 F20
G00 X1.828 Y1.278
G01 Z-0.002
G01 X1.988 Y1.278 F15
G01 X1.988 Y1.338
G01 X1.828 Y1.338
G01 X1.828 Y1.278
G01 Z0.1 F20
G00 X1.828 Y1.378
G01 Z-0.002
G01 X1.988 Y1.378 F15
G01 X1.988 Y1.438
G01 X1.828 Y1.438
G01 X1.828 Y1.378
G01 Z0.1 F20
G00 X0.078 Y0.678
G01 Z-0.002
G01 X0.238 Y0.678 F15
G01 X0.238 Y0.738
G01 X0.078 Y0.738
G01 X0.078 Y0.678
G01 Z0.1 F20
G00 X0.078 Y0.778
G01 Z-0.002
G01 X0.238 Y0.778 F15
G01 X0.238 Y0.838
G01 X0.078 Y0.838
G01 X0.078 Y0.778
G01 Z0.1 F20
G00 X0.078 Y0.878
G01 Z-0.002
G01 X0.238 Y0.878 F15
G01 X0.238 Y0.938
G01 X0.078 Y0.938
G01 X0.078 Y0.878
G01 Z0.1 F20
G00 X0.078 Y0.978
G01 Z-0.002
G01 X0.238 Y0.978 F15
G01 X0.238 Y1.038
G01 X0.078 Y1.038
G01 X0.078 Y0.978
G01 Z0.1 F20
G00 X0.078 Y1.078
G01 Z-0.002
G01 X0.238 Y1.078 F15
G01 X0.238 Y1.138
G01 X0.078 Y1.138
G01 X0.078 Y1.078
G01 Z0.1 F20
G00 X0.078 Y1.178
G01 Z-0.002
G01 X0.238 Y1.178 F15
G01 X0.238 Y1.238
G01 X0.078 Y1.238
G01 X0.078 Y1.178
G01 Z0.1 F20
G00 X0.078 Y1.278
G01 Z-0.002
G01 X0.238 Y1.278 F15
G01 X0.238 Y1.338
G01 X0.078 Y1.338
G01 X0.078 Y1.278
G01 Z0.1 F20
G00 X0.078 Y1.378
G01 Z-0.002
G01 X0.238 Y1.378 F15
G01 X0.238 Y1.438
G01 X0.078 Y1.438
G01 X0.078 Y1.378
G01 Z0.1 F20
G00 X1.993 Y0.608
G01 Z-0.002
G03 X1.993 Y0.608 I-0.035 J0 F15
G01 Z0.1 F20
G00 X1.993 Y1.758
G01 Z-0.002
G03 X1.993 Y1.758 I-0.035 J0 F15
G01 Z0.1 F20
G00 X1.893 Y0.608
G01 Z-0.002
G03 X1.893 Y0.608 I-0.035 J0 F15
G01 Z0.1 F20
G00 X1.843 Y1.708
G01 Z-0.002
G03 X1.843 Y1.708 I-0.035 J0 F15
G01 Z0.1 F20
G00 X1.793 Y0.608
G01 Z-0.002
G03 X1.793 Y0.608 I-0.035 J0 F15
G01 Z0.1 F20
G00 X1.693 Y0.608
G01 Z-0.002
G03 X1.693 Y0.608 I-0.035 J0 F15
G01 Z0.1 F20
G00 X1.593 Y1.758
G01 Z-0.002
G03 X1.593 Y1.758 I-0.035 J0 F15
G01 Z0.1 F20
G00 X1.493 Y0.158
G01 Z-0.002
G03 X1.493 Y0.158 I-0.035 J0 F15
G01 Z0.1 F20
G00 X1.493 Y0.258
G01 Z-0.002
G03 X1.493 Y0.258 I-0.035 J0 F15
G01 Z0.1 F20
G00 X1.493 Y0.358
G01 Z-0.002
G03 X1.493 Y0.358 I-0.035 J0 F15
G01 Z0.1 F20
G00 X0.593 Y1.658
G01 Z-0.002
G03 X0.593 Y1.658 I-0.035 J0 F15
G01 Z0.1 F20
G00 X0.367 Y0.4
G01 Z-0.002
G03 X0.37 Y0.408 I-0.009 J0.008 F15
(... pad touchdown start ...)
G00 Z0.25
G00 X1.958 Y0.608
G01 Z-0.005 F20
G04 P0.25
G00 Z0.25
G00 X1.958 Y1.758
G01 Z-0.005
G04 P0.25
G00 Z0.25
G00 X1.858 Y0.608
G01 Z-0.005
G04 P0.25
G00 Z0.25
G00 X1.808 Y1.708
G01 Z-0.005
G04 P0.25
G00 Z0.25
G00 X1.758 Y0.608
G01 Z-0.005
G04 P0.25
G00 Z0.25
G00 X1.658 Y0.608
G01 Z-0.005
G04 P0.25
G00 Z0.25
G00 X1.558 Y1.758
G01 Z-0.005
G04 P0.25
G00 Z0.25
G00 X1.458 Y0.158
G01 Z-0.005
G04 P0.25
G00 Z0.25
G00 X1.458 Y0.258
G01 Z-0.005
G04 P0.25
G00 Z0.25
G00 X1.458 Y0.358
G01 Z-0.005
G04 P0.25
G00 Z0.25
G00 X1.458 Y0.458
G01 Z-0.005
G04 P0.25
G00 Z0.25
G00 X0.558 Y1.658
G01 Z-0.005
G04 P0.25
G00 Z0.25
G00 X0.558 Y1.758
G01 Z-0.005
G04 P0.25
G00 Z0.25
G00 X0.558 Y1.858
G01 Z-0.005
G04 P0.25
G00 Z0.25
G00 X0.558 Y1.958
G01 Z-0.005
G04 P0.25
G00 Z0.25
G00 X0.458 Y0.358
G01 Z-0.005
G04 P0.25
G00 Z0.25
G00 X0.408 Y1.558
G01 Z-0.005
G04 P0.25
G00 Z0.25
G00 X0.358 Y0.508
G01 Z-0.005
G04 P0.25
G00 Z0.25
G00 X0.308 Y1.558
G01 Z-0.005
G04 P0.25
G00 Z0.25
G00 X0.208 Y1.558
G01 Z-0.005
G04 P0.25
G00 Z0.25
G00 X0.158 Y0.558
G01 Z-0.005
G04 P0.25
G00 Z0.25
G00 X0.108 Y1.558
G01 Z-0.005
G04 P0.25
G00 Z0.25
G00 X1.358 Y0.208
G01 Z-0.005
G04 P0.25
G00 Z0.25
G00 X1.358 Y0.508
G01 Z-0.005
G04 P0.25
G00 Z0.25
G00 X1.358 Y1.608
G01 Z-0.005
G04 P0.25
G00 Z0.25
G00 X1.358 Y1.908
G01 Z-0.005
G04 P0.25
G00 Z0.25
G00 X1.258 Y0.208
G01 Z-0.005
G04 P0.25
G00 Z0.25
G00 X1.258 Y0.508
G01 Z-0.005
G04 P0.25
G00 Z0.25
G00 X1.258 Y1.608
G01 Z-0.005
G04 P0.25
G00 Z0.25
G00 X1.258 Y1.908
G01 Z-0.005
G04 P0.25
G00 Z0.25
G00 X1.158 Y0.208
G01 Z-0.005
G04 P0.25
G00 Z0.25
G00 X1.158 Y0.508
G01 Z-0.005
G04 P0.25
G00 Z0.25
G00 X1.158 Y1.608
G01 Z-0.005
G04 P0.25
G00 Z0.25
G00 X1.158 Y1.908
G01 Z-0.005
G04 P0.25
G00 Z0.25
G00 X1.058 Y0.208
G01 Z-0.005
G04 P0.25
G00 Z0.25
G00 X1.058 Y0.508
G01 Z-0.005
G04 P0.25
G00 Z0.25
G00 X1.058 Y1.608
G01 Z-0.005
G04 P0.25
G00 Z0.25
G00 X1.058 Y1.908
G01 Z-0.005
G04 P0.25
G00 Z0.25
G00 X0.958 Y0.208
G01 Z-0.005
G04 P0.25
G00 Z0.25
G00 X0.958 Y0.508
G01 Z-0.005
G04 P0.25
G00 Z0.25
G00 X0.958 Y1.608
G01 Z-0.005
G04 P0.25
G00 Z0.25
G00 X0.958 Y1.908
G01 Z-0.005
G04 P0.25
G00 Z0.25
G00 X0.858 Y0.208
G01 Z-0.005
G04 P0.25
G00 Z0.25
G00 X0.858 Y0.508
G01 Z-0.005
G04 P0.25
G00 Z0.25
G00 X0.858 Y1.608
G01 Z-0.005
G04 P0.25
G00 Z0.25
G00 X0.858 Y1.908
G01 Z-0.005
G04 P0.25
G00 Z0.25
G00 X0.758 Y0.208
G01 Z-0.005
G04 P0.25
G00 Z0.25
G00 X0.758 Y0.508
G01 Z-0.005
G04 P0.25
G00 Z0.25
G00 X0.758 Y1.608
G01 Z-0.005
G04 P0.25
G00 Z0.25
G00 X0.758 Y1.908
G01 Z-0.005
G04 P0.25
G00 Z0.25
G00 X0.658 Y0.208
G01 Z-0.005
G04 P0.25
G00 Z0.25
G00 X0.658 Y0.508
G01 Z-0.005
G04 P0.25
G00 Z0.25
G00 X0.658 Y1.608
G01 Z-0.005
G04 P0.25
G00 Z0.25
G00 X0.658 Y1.908
G01 Z-0.005
G04 P0.25
G00 Z0.25
G00 X1.908 Y0.708
G01 Z-0.005
G04 P0.25
G00 Z0.25
G00 X1.908 Y0.808
G01 Z-0.005
G04 P0.25
G00 Z0.25
G00 X1.908 Y0.908
G01 Z-0.005
G04 P0.25
G00 Z0.25
G00 X1.908 Y1.008
G01 Z-0.005
G04 P0.25
G00 Z0.25
G00 X1.908 Y1.108
G01 Z-0.005
G04 P0.25
G00 Z0.25
G00 X1.908 Y1.208
G01 Z-0.005
G04 P0.25
G00 Z0.25
G00 X1.908 Y1.308
G01 Z-0.005
G04 P0.25
G00 Z0.25
G00 X1.908 Y1.408
G01 Z-0.005
G04 P0.25
G00 Z0.25
G00 X1.608 Y0.708
G01 Z-0.005
G04 P0.25
G00 Z0.25
G00 X1.608 Y0.808
G01 Z-0.005
G04 P0.25
G00 Z0.25
G00 X1.608 Y0.908
G01 Z-0.005
G04 P0.25
G00 Z0.25
G00 X1.608 Y1.008
G01 Z-0.005
G04 P0.25
G00 Z0.25
G00 X1.608 Y1.108
G01 Z-0.005
G04 P0.25
G00 Z0.25
G00 X1.608 Y1.208
G01 Z-0.005
G04 P0.25
G00 Z0.25
G00 X1.608 Y1.308
G01 Z-0.005
G04 P0.25
G00 Z0.25
G00 X1.608 Y1.408
G01 Z-0.005
G04 P0.25
G00 Z0.25
G00 X0.458 Y0.708
G01 Z-0.005
G04 P0.25
G00 Z0.25
G00 X0.458 Y0.808
G01 Z-0.005
G04 P0.25
G00 Z0.25
G00 X0.458 Y0.908
G01 Z-0.005
G04 P0.25
G00 Z0.25
G00 X0.458 Y1.008
G01 Z-0.005
G04 P0.25
G00 Z0.25
G00 X0.458 Y1.108
G01 Z-0.005
G04 P0.25
G00 Z0.25
G00 X0.458 Y1.208
G01 Z-0.005
G04 P0.25
G00 Z0.25
G00 X0.458 Y1.308
G01 Z-0.005
G04 P0.25
G00 Z0.25
G00 X0.458 Y1.408
G01 Z-0.005
G04 P0.25
G00 Z0.25
G00 X0.158 Y0.708
G01 Z-0.005
G04 P0.25
G00 Z0.25
G00 X0.158 Y0.808
G01 Z-0.005
G04 P0.25
G00 Z0.25
G00 X0.158 Y0.908
G01 Z-0.005
G04 P0.25
G00 Z0.25
G00 X0.158 Y1.008
G01 Z-0.005
G04 P0.25
G00 Z0.25
G00 X0.158 Y1.108
G01 Z-0.005
G04 P0.25
G00 Z0.25
G00 X0.158 Y1.208
G01 Z-0.005
G04 P0.25
G00 Z0.25
G00 X0.158 Y1.308
G01 Z-0.005
G04 P0.25
G00 Z0.25
G00 X0.158 Y1.408
G01 Z-0.005
G04 P0.25
G00 Z0.25
G00 X1.508 Y0.408
G01 Z-0.005
G04 P0.25
G00 Z0.25
G00 X0.358 Y1.658
G01 Z-0.005
G04 P0.25
G00 Z0.25
(... pad touchdown end ...)
G00 Z0.25
G00 X0 Y0
M05 (Stop spindle)
M02 (Program End)

