(Generated By: Line Grinder Version: 01.03)
(Home Page: http://www.OfItselfSo.com/LineGrinder/LineGrinder.php)
(Generated from file: C:\Projects\LineGrinder - Template\Examples - DesignSpark\LGTest2 - Bottom Copper.gbr)
(Date Generated: Tuesday, 15 March 2011 11:35)

(The Line Grinder software is released under the MIT License. There)
(is no warranty or guarantee that the GCode files it produces)
(are without error. You use it, and run its output code entirely)
(at your own risk. In particular: )

(THE LINE GRINDER SOFTWARE, AND THE OUTPUT CODE IT GENERATES, ARE )
(PROVIDED "AS IS", WITHOUT WARRANTY OF ANY KIND, EXPRESS OR )
(IMPLIED, INCLUDING BUT NOT LIMITED TO THE WARRANTIES OF )
(MERCHANTABILITY, FITNESS FOR A PARTICULAR PURPOSE AND )
(NONINFRINGEMENT. IN NO EVENT SHALL THE AUTHORS OR COPYRIGHT )
(HOLDERS BE LIABLE FOR ANY CLAIM, DAMAGES OR OTHER LIABILITY, )
(WHETHER IN AN ACTION OF CONTRACT, TORT OR OTHERWISE, ARISING )
(FROM, OUT OF OR IN CONNECTION WITH THE SOFTWARE OR ITS OUTPUT)
(OR FROM THE USE OR OTHER DEALINGS IN THE SOFTWARE. )

G20 (Use Inches)
G90 (Set Absolute Coordinates)
G17 (XY plane selection)
G00 Z0.25
G00 X0 Y0
M03 (Start spindle)
G04 P1 (Pause to let the spindle start)
G00 X0.133 Y0.163
G01 Z-0.002 F20
G01 X0.133 Y1.591 F25
G01 X0.315 Y1.773
G01 X1.741 Y1.773
G01 X1.873 Y1.641
G01 X1.873 Y0.315
G01 X1.841 Y0.283
G01 X0.315 Y0.283
G01 X0.233 Y0.365
G01 X0.233 Y1.541
G01 X0.365 Y1.673
G01 X1.673 Y1.673
G01 X1.673 Y1.453

G03 X1.6818 Y1.4318 I0.03 J0
G01 X1.682 Y1.432
G01 X1.723 Y1.391
G01 X1.723 Y0.433
G01 X0.383 Y0.433
G01 X0.383 Y1.391
G01 X0.515 Y1.523
G01 X1.523 Y1.523
G01 X1.523 Y1.503

G03 X1.5318 Y1.4818 I0.03 J0
G01 X1.532 Y1.482
G01 X1.623 Y1.391
G01 X1.623 Y0.583
G01 X0.583 Y0.583
G01 X0.583 Y1.19
G01 X0.715 Y1.323
G01 X1.474 Y1.323
G01 X1.474 Y0.853

G03 X1.4818 Y0.8328 I0.03 J0
G01 X1.482 Y0.833
G01 X1.453 Y0.833

G03 X1.4318 Y0.8242 I0 J-0.03
G01 X1.432 Y0.824
G01 X1.341 Y0.733
G01 X0.816 Y0.733
G01 X0.733 Y0.815
G01 X0.733 Y0.99
G01 X0.865 Y1.123
G01 X1.303 Y1.123

G03 X1.3232 Y1.1308 I0 J0.03
G01 X1.323 Y1.131
G01 X1.323 Y0.915
G01 X1.291 Y0.883
G01 X0.883 Y0.883
G01 X0.883 Y0.972
G01 X0.944 Y0.972

G03 X1.0711 Y1.002 I0.06 J0.03
G01 X1.071 Y1.002

G03 X0.9441 Y1.032 I-0.067 J0
G01 X0.944 Y1.032
G01 X0.853 Y1.032

G03 X0.823 Y1.002 I0 J-0.03
G01 X0.823 Y0.853

G03 X0.853 Y0.823 I0.03 J0
G01 X1.303 Y0.823

G03 X1.3242 Y0.8318 I0 J0.03
G01 X1.324 Y0.832
G01 X1.374 Y0.882

G03 X1.3827 Y0.903 I-0.021 J0.021
G01 X1.383 Y0.903
G01 X1.383 Y1.202

G03 X1.3318 Y1.2232 I-0.03 J0
G01 X1.332 Y1.223
G01 X1.291 Y1.183
G01 X0.853 Y1.183

G03 X0.8318 Y1.1742 I0 J-0.03
G01 X0.832 Y1.174
G01 X0.682 Y1.023

G03 X0.6733 Y1.002 I0.021 J-0.021
G01 X0.673 Y1.002
G01 X0.673 Y0.803

G03 X0.6818 Y0.7818 I0.03 J0
G01 X0.682 Y0.782
G01 X0.783 Y0.682

G03 X0.804 Y0.673 I0.021 J0.021
G01 X1.353 Y0.673

G03 X1.3742 Y0.6818 I0 J0.03
G01 X1.374 Y0.682
G01 X1.465 Y0.773
G01 X1.553 Y0.773

G03 X1.583 Y0.803 I0 J0.03

G03 X1.5742 Y0.8242 I-0.03 J0
G01 X1.574 Y0.824
G01 X1.534 Y0.865
G01 X1.534 Y1.353

G03 X1.504 Y1.383 I-0.03 J0
G01 X0.703 Y1.383

G03 X0.6818 Y1.3742 I0 J-0.03
G01 X0.682 Y1.374
G01 X0.532 Y1.223

G03 X0.5233 Y1.202 I0.021 J-0.021
G01 X0.523 Y1.202
G01 X0.523 Y0.553

G03 X0.553 Y0.523 I0.03 J0
G01 X1.653 Y0.523

G03 X1.683 Y0.553 I0 J0.03
G01 X1.683 Y1.403

G03 X1.6742 Y1.4242 I-0.03 J0
G01 X1.674 Y1.424
G01 X1.583 Y1.515
G01 X1.583 Y1.553

G03 X1.553 Y1.583 I-0.03 J0
G01 X0.503 Y1.583

G03 X0.4818 Y1.5742 I0 J-0.03
G01 X0.482 Y1.574
G01 X0.332 Y1.424

G03 X0.3233 Y1.403 I0.021 J-0.021
G01 X0.323 Y1.403
G01 X0.323 Y0.403

G03 X0.353 Y0.373 I0.03 J0
G01 X1.753 Y0.373

G03 X1.783 Y0.403 I0 J0.03
G01 X1.783 Y1.403

G03 X1.7742 Y1.4242 I-0.03 J0
G01 X1.774 Y1.424
G01 X1.733 Y1.465
G01 X1.733 Y1.703

G03 X1.703 Y1.733 I-0.03 J0
G01 X0.353 Y1.733

G03 X0.3318 Y1.7242 I0 J-0.03
G01 X0.332 Y1.724
G01 X0.182 Y1.574

G03 X0.1733 Y1.553 I0.021 J-0.021
G01 X0.173 Y1.553
G01 X0.173 Y0.353

G03 X0.1818 Y0.3318 I0.03 J0
G01 X0.182 Y0.332
G01 X0.282 Y0.232

G03 X0.303 Y0.223 I0.021 J0.021
G01 X1.853 Y0.223

G03 X1.8742 Y0.2318 I0 J0.03
G01 X1.874 Y0.232
G01 X1.924 Y0.282

G03 X1.9327 Y0.303 I-0.021 J0.021
G01 X1.933 Y0.303
G01 X1.933 Y1.653

G03 X1.9242 Y1.6742 I-0.03 J0
G01 X1.924 Y1.674
G01 X1.774 Y1.824

G03 X1.753 Y1.833 I-0.021 J-0.021
G01 X0.303 Y1.833

G03 X0.2818 Y1.8242 I0 J-0.03
G01 X0.282 Y1.824
G01 X0.082 Y1.624

G03 X0.0733 Y1.603 I0.021 J-0.021
G01 X0.073 Y1.603
G01 X0.073 Y0.163

G03 X0.1701 Y0.103 I0.03 J-0.06
G01 X0.17 Y0.103

G03 X0.133 Y0.1629 I-0.067 J0
G01 X0.133 Y0.163

G01 Z0.1 F20
G00 X1.97 Y0.103
G01 Z-0.002
G03 X1.97 Y0.103 I-0.067 J0 F25
G00 Z0.25
G00 X0 Y0
M05 (Stop spindle)
M02 (Program End)

