(Generated By: Line Grinder Version: 01.03)
(Home Page: http://www.OfItselfSo.com/LineGrinder/LineGrinder.php)
(Generated from file: C:\Projects\LineGrinder - Template\Examples - DesignSpark\LGTest3 - Bottom Copper.gbr)
(Date Generated: Tuesday, 15 March 2011 10:45)

(The Line Grinder software is released under the MIT License. There)
(is no warranty or guarantee that the GCode files it produces)
(are without error. You use it, and run its output code entirely)
(at your own risk. In particular: )

(THE LINE GRINDER SOFTWARE, AND THE OUTPUT CODE IT GENERATES, ARE )
(PROVIDED "AS IS", WITHOUT WARRANTY OF ANY KIND, EXPRESS OR )
(IMPLIED, INCLUDING BUT NOT LIMITED TO THE WARRANTIES OF )
(MERCHANTABILITY, FITNESS FOR A PARTICULAR PURPOSE AND )
(NONINFRINGEMENT. IN NO EVENT SHALL THE AUTHORS OR COPYRIGHT )
(HOLDERS BE LIABLE FOR ANY CLAIM, DAMAGES OR OTHER LIABILITY, )
(WHETHER IN AN ACTION OF CONTRACT, TORT OR OTHERWISE, ARISING )
(FROM, OUT OF OR IN CONNECTION WITH THE SOFTWARE OR ITS OUTPUT)
(OR FROM THE USE OR OTHER DEALINGS IN THE SOFTWARE. )

G20 (Use Inches)
G90 (Set Absolute Coordinates)
G17 (XY plane selection)
G00 Z0.25
G00 X0 Y0
M03 (Start spindle)
G04 P1 (Pause to let the spindle start)
G00 X0.752 Y0.972
G01 Z-0.002 F20
G01 X0.953 Y0.972 F15
(ZZZZZ---->GO2Arc)
G03 X0.983 Y1.002 I0 J0.03
(ZZZZZ---->GO2Arc)
G03 X0.953 Y1.032 I-0.03 J0
G01 X0.764 Y1.032
G01 X0.532 Y1.264
G01 X0.532 Y1.503
(ZZZZZ---->GO2Arc)
G03 X0.472 Y1.503 I-0.03 J0
G01 X0.472 Y1.252
(ZZZZZ---->GO2Arc)
G03 X0.4808 Y1.2308 I0.03 J0
G01 X0.481 Y1.231
(XXXXXX---->xCenter=0.502 Ycenter=1.252)
(XXXXXX---->AutoGenerated Compensation)
G01 X0.731 Y0.981
(ZZZZZ---->GO2Arc)
G03 X0.752 Y0.972 I0.021 J0.021
G00 Z0.25
G00 X0 Y0
M05 (Stop spindle)
M02 (Program End)

