(Generated By: Line Grinder Version: 01.03)
(Home Page: http://www.OfItselfSo.com/LineGrinder/LineGrinder.php)
(Generated from file: C:\Projects\LineGrinder - Template\Examples - DesignSpark\LGTest - Top Copper.gbr)
(Date Generated: Monday, 14 March 2011 15:12)

(The Line Grinder software is released under the MIT License. There)
(is no warranty or guarantee that the GCode files it produces)
(are without error. You use it, and run its output code entirely)
(at your own risk. In particular: )

(THE LINE GRINDER SOFTWARE, AND THE OUTPUT CODE IT GENERATES, ARE )
(PROVIDED "AS IS", WITHOUT WARRANTY OF ANY KIND, EXPRESS OR )
(IMPLIED, INCLUDING BUT NOT LIMITED TO THE WARRANTIES OF )
(MERCHANTABILITY, FITNESS FOR A PARTICULAR PURPOSE AND )
(NONINFRINGEMENT. IN NO EVENT SHALL THE AUTHORS OR COPYRIGHT )
(HOLDERS BE LIABLE FOR ANY CLAIM, DAMAGES OR OTHER LIABILITY, )
(WHETHER IN AN ACTION OF CONTRACT, TORT OR OTHERWISE, ARISING )
(FROM, OUT OF OR IN CONNECTION WITH THE SOFTWARE OR ITS OUTPUT)
(OR FROM THE USE OR OTHER DEALINGS IN THE SOFTWARE. )

G20 (Use Inches)
G90 (Set Absolute Coordinates)
G17 (XY plane selection)
G00 Z0.25
G00 X0 Y0
M03 (Start spindle)
G04 P1 (Pause to let the spindle start)
G00 X0.171 Y0.511
G01 Z-0.002 F20
G01 X0.171 Y0.576 F15
(ZZZZZ---->GO2Arc)
G03 X0.1925 Y0.608 I-0.013 J0.032
G01 X0.193 Y0.608
(XXXXXX---->xCenter=0.158 Ycenter=0.608)
(XXXXXX---->AutoGenerated Compensation)
(ZZZZZ---->GO2Arc)
G03 X0.1901 Y0.594 I-0.035 J0
G01 X0.146 Y0.575
(XXXXXX---->xCenter=0.158 Ycenter=0.608)
(XXXXXX---->AutoGenerated Compensation)
G01 X0.146 Y0.508
(ZZZZZ---->GO2Arc)
G03 X0.162 Y0.5193 I0.012 J0
G01 X0.149 Y0.5
(XXXXXX---->xCenter=0.158 Ycenter=0.508)
(XXXXXX---->AutoGenerated Compensation)
G01 Z0.1 F20
G00 X0.149 Y0.499
G01 Z-0.002
G01 X0.499 Y0.149 F15
G01 Z0.1 F20
G00 X0.171 Y0.511
G01 Z-0.002
G01 X0.512 Y0.17 F15
G01 X0.625 Y0.17
(ZZZZZ---->GO2Arc)
G02 X0.6931 Y0.158 I0.033 J-0.012
G01 X0.693 Y0.158
(XXXXXX---->xCenter=0.6580001 Ycenter=0.158)
(XXXXXX---->AutoGenerated Compensation)
(ZZZZZ---->GO2Arc)
G02 X0.6898 Y0.1726 I-0.035 J0
G01 X0.626 Y0.145
(XXXXXX---->xCenter=0.6580001 Ycenter=0.158)
(XXXXXX---->AutoGenerated Compensation)
G01 X0.508 Y0.145
G01 X0.508 Y0.146
(ZZZZZ---->GO2Arc)
G02 X0.512 Y0.1693 I0 J0.012
G01 X0.499 Y0.15
(XXXXXX---->xCenter=0.508 Ycenter=0.158)
(XXXXXX---->AutoGenerated Compensation)
G01 Z0.1 F20
G00 X0.34 Y1.695
G01 Z-0.002
G01 X0.428 Y1.695 F15
G01 X0.428 Y1.608
(ZZZZZ---->GO2Arc)
G03 X0.458 Y1.578 I0.03 J0
G01 X0.558 Y1.578
(ZZZZZ---->GO2Arc)
G03 X0.588 Y1.608 I0 J0.03
G01 X0.588 Y1.74
(ZZZZZ---->GO2Arc)
G03 X0.593 Y1.758 I-0.03 J0.018
(ZZZZZ---->GO2Arc)
G03 X0.5851 Y1.7801 I-0.035 J0
G01 X0.528 Y1.74
(XXXXXX---->xCenter=0.558 Ycenter=1.758)
(XXXXXX---->AutoGenerated Compensation)
G01 X0.528 Y1.638
G01 X0.488 Y1.638
G01 X0.488 Y1.708
G01 X0.488 Y1.858
(ZZZZZ---->GO2Arc)
G03 X0.458 Y1.888 I-0.03 J0
G01 X0.308 Y1.888
(ZZZZZ---->GO2Arc)
G03 X0.3084 Y1.828 I0 J-0.03
G01 X0.287 Y1.879
(XXXXXX---->xCenter=0.308 Ycenter=1.858)
(XXXXXX---->AutoGenerated Compensation)
G01 X0.196 Y1.788
G01 X0.176 Y1.788
(ZZZZZ---->GO2Arc)
G03 X0.1383 Y1.7291 I-0.018 J-0.03
G01 X0.176 Y1.728
(XXXXXX---->xCenter=0.158 Ycenter=1.758)
(XXXXXX---->AutoGenerated Compensation)
G01 X0.208 Y1.728
(ZZZZZ---->GO2Arc)
G03 X0.2084 Y1.728 I0 J0.03
G01 X0.229 Y1.737
(XXXXXX---->xCenter=0.208 Ycenter=1.758)
(XXXXXX---->AutoGenerated Compensation)
G01 X0.32 Y1.828
G01 X0.428 Y1.828
G01 X0.428 Y1.72
G01 X0.341 Y1.72
(ZZZZZ---->GO2Arc)
G03 X0.3399 Y1.6934 I-0.033 J-0.012
G01 X0.34 Y1.695
(XXXXXX---->xCenter=0.308 Ycenter=1.708)
(XXXXXX---->AutoGenerated Compensation)
G01 Z0.1 F20
G00 X0.371 Y0.461
G01 Z-0.002
G01 X0.371 Y0.576 F15
(ZZZZZ---->GO2Arc)
G03 X0.3925 Y0.608 I-0.013 J0.032
G01 X0.393 Y0.608
(XXXXXX---->xCenter=0.358 Ycenter=0.608)
(XXXXXX---->AutoGenerated Compensation)
(ZZZZZ---->GO2Arc)
G03 X0.3901 Y0.594 I-0.035 J0
G01 X0.346 Y0.575
(XXXXXX---->xCenter=0.358 Ycenter=0.608)
(XXXXXX---->AutoGenerated Compensation)
G01 X0.346 Y0.458
(ZZZZZ---->GO2Arc)
G03 X0.362 Y0.4693 I0.012 J0
G01 X0.349 Y0.45
(XXXXXX---->xCenter=0.358 Ycenter=0.458)
(XXXXXX---->AutoGenerated Compensation)
G01 Z0.1 F20
G00 X0.349 Y0.449
G01 Z-0.002
G01 X0.499 Y0.299 F15
G01 Z0.1 F20
G00 X0.371 Y0.461
G01 Z-0.002
G01 X0.512 Y0.32 F15
G01 X0.646 Y0.32
G01 X0.646 Y0.325
(ZZZZZ---->GO2Arc)
G02 X0.6931 Y0.358 I0.012 J0.033
G01 X0.693 Y0.358
(XXXXXX---->xCenter=0.6580001 Ycenter=0.358)
(XXXXXX---->AutoGenerated Compensation)
(ZZZZZ---->GO2Arc)
G02 X0.6822 Y0.3833 I-0.035 J0
G01 X0.671 Y0.326
(XXXXXX---->xCenter=0.6580001 Ycenter=0.358)
(XXXXXX---->AutoGenerated Compensation)
G01 X0.671 Y0.308
G01 X0.67 Y0.308
(ZZZZZ---->GO2Arc)
G02 X0.658 Y0.296 I-0.012 J0
G01 X0.658 Y0.295
G01 X0.508 Y0.295
G01 X0.508 Y0.296
(ZZZZZ---->GO2Arc)
G02 X0.512 Y0.3193 I0 J0.012
G01 X0.499 Y0.3
(XXXXXX---->xCenter=0.508 Ycenter=0.308)
(XXXXXX---->AutoGenerated Compensation)
G01 Z0.1 F20
G00 X0.471 Y0.561
G01 Z-0.002
G01 X0.471 Y0.576 F15
(ZZZZZ---->GO2Arc)
G03 X0.4925 Y0.608 I-0.013 J0.032
G01 X0.493 Y0.608
(XXXXXX---->xCenter=0.458 Ycenter=0.608)
(XXXXXX---->AutoGenerated Compensation)
(ZZZZZ---->GO2Arc)
G03 X0.4901 Y0.594 I-0.035 J0
G01 X0.446 Y0.575
(XXXXXX---->xCenter=0.458 Ycenter=0.608)
(XXXXXX---->AutoGenerated Compensation)
G01 X0.446 Y0.558
(ZZZZZ---->GO2Arc)
G03 X0.462 Y0.5693 I0.012 J0
G01 X0.449 Y0.55
(XXXXXX---->xCenter=0.458 Ycenter=0.558)
(XXXXXX---->AutoGenerated Compensation)
G01 Z0.1 F20
G00 X0.449 Y0.549
G01 Z-0.002
G01 X0.58 Y0.418 F15
G01 Z0.1 F20
G00 X0.471 Y0.561
G01 Z-0.002
G01 X0.597 Y0.435 F15
(ZZZZZ---->GO2Arc)
G02 X0.6372 Y0.408 I0.011 J-0.027
G01 X0.637 Y0.408
(XXXXXX---->xCenter=0.608 Ycenter=0.408)
(XXXXXX---->AutoGenerated Compensation)
(ZZZZZ---->GO2Arc)
G02 X0.6354 Y0.3985 I-0.029 J0
G01 X0.58 Y0.417
(XXXXXX---->xCenter=0.608 Ycenter=0.408)
(XXXXXX---->AutoGenerated Compensation)
G01 Z0.1 F20
G00 X0.671 Y0.208
G01 Z-0.002
G01 X0.671 Y0.226 F15
(ZZZZZ---->GO2Arc)
G03 X0.6925 Y0.258 I-0.013 J0.032
G01 X0.693 Y0.258
(XXXXXX---->xCenter=0.6580001 Ycenter=0.258)
(XXXXXX---->AutoGenerated Compensation)
(ZZZZZ---->GO2Arc)
G03 X0.6901 Y0.244 I-0.035 J0
G01 X0.646 Y0.225
(XXXXXX---->xCenter=0.6580001 Ycenter=0.258)
(XXXXXX---->AutoGenerated Compensation)
G01 X0.646 Y0.22
G01 X0.512 Y0.22
G01 X0.271 Y0.461
G01 X0.271 Y0.576
(ZZZZZ---->GO2Arc)
G03 X0.2925 Y0.608 I-0.013 J0.032
G01 X0.293 Y0.608
(XXXXXX---->xCenter=0.258 Ycenter=0.608)
(XXXXXX---->AutoGenerated Compensation)
(ZZZZZ---->GO2Arc)
G03 X0.2901 Y0.594 I-0.035 J0
G01 X0.246 Y0.575
(XXXXXX---->xCenter=0.258 Ycenter=0.608)
(XXXXXX---->AutoGenerated Compensation)
G01 X0.246 Y0.458
(ZZZZZ---->GO2Arc)
G03 X0.262 Y0.4693 I0.012 J0
G01 X0.249 Y0.45
(XXXXXX---->xCenter=0.258 Ycenter=0.458)
(XXXXXX---->AutoGenerated Compensation)
G01 Z0.1 F20
G00 X0.67 Y0.208
G01 Z-0.002
G01 X0.671 Y0.208 F15
G01 Z0.1 F20
G00 X0.658 Y0.195
G01 Z-0.002
G01 X0.658 Y0.196 F15
(ZZZZZ---->GO2Arc)
G03 X0.67 Y0.208 I0 J0.012
G01 Z0.1 F20
G00 X0.508 Y0.195
G01 Z-0.002
G01 X0.658 Y0.195 F15
G01 Z0.1 F20
G00 X0.508 Y0.195
G01 Z-0.002
G01 X0.508 Y0.196 F15
(ZZZZZ---->GO2Arc)
G02 X0.512 Y0.2193 I0 J0.012
G01 X0.499 Y0.2
(XXXXXX---->xCenter=0.508 Ycenter=0.208)
(XXXXXX---->AutoGenerated Compensation)
G01 Z0.1 F20
G00 X0.249 Y0.449
G01 Z-0.002
G01 X0.499 Y0.199 F15
G01 Z0.1 F20
G00 X0.771 Y1.688
G01 Z-0.002
G01 X0.771 Y1.727 F15
G01 X0.796 Y1.702
G01 X0.796 Y0.37
G01 X0.771 Y0.37
G01 X0.771 Y0.428
G01 X0.788 Y0.428
G01 X0.788 Y0.588
G01 X0.728 Y0.588
G01 X0.728 Y0.428
G01 X0.746 Y0.428
G01 X0.746 Y0.358
(ZZZZZ---->GO2Arc)
G03 X0.758 Y0.346 I0.012 J0
G01 X0.758 Y0.345
G01 X0.808 Y0.345
G01 X0.808 Y0.346
(ZZZZZ---->GO2Arc)
G03 X0.82 Y0.358 I0 J0.012
G01 X0.821 Y0.358
G01 X0.821 Y1.708
G01 X0.82 Y1.708
(ZZZZZ---->GO2Arc)
G03 X0.8013 Y1.7179 I-0.012 J0
G01 X0.814 Y1.718
(XXXXXX---->xCenter=0.808 Ycenter=1.708)
(XXXXXX---->AutoGenerated Compensation)
G01 X0.768 Y1.764
(ZZZZZ---->GO2Arc)
G03 X0.7697 Y1.758 I-0.01 J-0.006
G01 X0.746 Y1.758
(XXXXXX---->xCenter=0.758 Ycenter=1.758)
(XXXXXX---->AutoGenerated Compensation)
G01 X0.746 Y1.688
G01 X0.728 Y1.688
G01 X0.728 Y1.528
G01 X0.788 Y1.528
G01 X0.788 Y1.688
G01 X0.771 Y1.688
G01 Z0.1 F20
G00 X0.871 Y0.588
G01 Z-0.002
G01 X0.871 Y1.528 F15
G01 X0.888 Y1.528
G01 X0.888 Y1.688
G01 X0.828 Y1.688
G01 X0.828 Y1.528
G01 X0.846 Y1.528
G01 X0.846 Y0.588
G01 X0.828 Y0.588
G01 X0.828 Y0.428
G01 X0.888 Y0.428
G01 X0.888 Y0.588
G01 X0.871 Y0.588
G01 Z0.1 F20
G00 X0.971 Y1.688
G01 Z-0.002
G01 X0.971 Y1.695 F15
G01 X0.996 Y1.695
G01 X0.996 Y0.42
G01 X0.971 Y0.42
G01 X0.971 Y0.428
G01 X0.988 Y0.428
G01 X0.988 Y0.588
G01 X0.928 Y0.588
G01 X0.928 Y0.428
G01 X0.946 Y0.428
G01 X0.946 Y0.408
(ZZZZZ---->GO2Arc)
G03 X0.958 Y0.396 I0.012 J0
G01 X0.958 Y0.395
G01 X1.008 Y0.395
G01 X1.008 Y0.396
(ZZZZZ---->GO2Arc)
G03 X1.02 Y0.408 I0 J0.012
G01 X1.021 Y0.408
G01 X1.021 Y1.708
G01 X1.02 Y1.708
(ZZZZZ---->GO2Arc)
G03 X1.008 Y1.72 I-0.012 J0
G01 X0.958 Y1.72
(ZZZZZ---->GO2Arc)
G03 X0.97 Y1.708 I0 J-0.012
G01 X0.946 Y1.708
(XXXXXX---->xCenter=0.958 Ycenter=1.708)
(XXXXXX---->AutoGenerated Compensation)
G01 X0.946 Y1.688
G01 X0.928 Y1.688
G01 X0.928 Y1.528
G01 X0.988 Y1.528
G01 X0.988 Y1.688
G01 X0.971 Y1.688
G01 Z0.1 F20
G00 X1.071 Y0.588
G01 Z-0.002
G01 X1.071 Y1.528 F15
G01 X1.088 Y1.528
G01 X1.088 Y1.688
G01 X1.028 Y1.688
G01 X1.028 Y1.528
G01 X1.046 Y1.528
G01 X1.046 Y0.588
G01 X1.028 Y0.588
G01 X1.028 Y0.428
G01 X1.088 Y0.428
G01 X1.088 Y0.588
G01 X1.071 Y0.588
G01 Z0.1 F20
G00 X1.171 Y1.688
G01 Z-0.002
G01 X1.171 Y1.708 F15
G01 X1.17 Y1.708
(ZZZZZ---->GO2Arc)
G03 X1.158 Y1.72 I-0.012 J0
G01 X1.108 Y1.72
(ZZZZZ---->GO2Arc)
G03 X1.12 Y1.708 I0 J-0.012
G01 X1.096 Y1.708
(XXXXXX---->xCenter=1.108 Ycenter=1.708)
(XXXXXX---->AutoGenerated Compensation)
G01 X1.096 Y0.408
(ZZZZZ---->GO2Arc)
G03 X1.108 Y0.396 I0.012 J0
G01 X1.108 Y0.395
G01 X1.158 Y0.395
G01 X1.158 Y0.396
(ZZZZZ---->GO2Arc)
G03 X1.17 Y0.408 I0 J0.012
G01 X1.171 Y0.408
G01 X1.171 Y0.428
G01 X1.188 Y0.428
G01 X1.188 Y0.588
G01 X1.128 Y0.588
G01 X1.128 Y0.428
G01 X1.146 Y0.428
G01 X1.146 Y0.42
G01 X1.121 Y0.42
G01 X1.121 Y1.695
G01 X1.146 Y1.695
G01 X1.146 Y1.688
G01 X1.128 Y1.688
G01 X1.128 Y1.528
G01 X1.188 Y1.528
G01 X1.188 Y1.688
G01 X1.171 Y1.688
G01 Z0.1 F20
G00 X1.271 Y1.688
G01 Z-0.002
G01 X1.271 Y1.695 F15
G01 X1.296 Y1.695
G01 X1.296 Y0.42
G01 X1.271 Y0.42
G01 X1.271 Y0.428
G01 X1.288 Y0.428
G01 X1.288 Y0.588
G01 X1.228 Y0.588
G01 X1.228 Y0.428
G01 X1.246 Y0.428
G01 X1.246 Y0.408
(ZZZZZ---->GO2Arc)
G03 X1.258 Y0.396 I0.012 J0
G01 X1.258 Y0.395
G01 X1.308 Y0.395
G01 X1.308 Y0.396
(ZZZZZ---->GO2Arc)
G03 X1.32 Y0.408 I0 J0.012
G01 X1.321 Y0.408
G01 X1.321 Y1.708
G01 X1.32 Y1.708
(ZZZZZ---->GO2Arc)
G03 X1.308 Y1.72 I-0.012 J0
G01 X1.258 Y1.72
(ZZZZZ---->GO2Arc)
G03 X1.27 Y1.708 I0 J-0.012
G01 X1.246 Y1.708
(XXXXXX---->xCenter=1.258 Ycenter=1.708)
(XXXXXX---->AutoGenerated Compensation)
G01 X1.246 Y1.688
G01 X1.228 Y1.688
G01 X1.228 Y1.528
G01 X1.288 Y1.528
G01 X1.288 Y1.688
G01 X1.271 Y1.688
G01 Z0.1 F20
G00 X1.371 Y0.588
G01 Z-0.002
G01 X1.371 Y1.528 F15
G01 X1.388 Y1.528
G01 X1.388 Y1.688
G01 X1.328 Y1.688
G01 X1.328 Y1.528
G01 X1.346 Y1.528
G01 X1.346 Y0.588
G01 X1.328 Y0.588
G01 X1.328 Y0.428
G01 X1.388 Y0.428
G01 X1.388 Y0.588
G01 X1.371 Y0.588
G01 Z0.1 F20
G00 X1.471 Y1.688
G01 Z-0.002
G01 X1.471 Y1.758 F15
G01 X1.47 Y1.758
(ZZZZZ---->GO2Arc)
G03 X1.458 Y1.77 I-0.012 J0
G01 X1.408 Y1.77
(ZZZZZ---->GO2Arc)
G03 X1.42 Y1.758 I0 J-0.012
G01 X1.396 Y1.758
(XXXXXX---->xCenter=1.408 Ycenter=1.758)
(XXXXXX---->AutoGenerated Compensation)
G01 X1.396 Y0.408
(ZZZZZ---->GO2Arc)
G03 X1.412 Y0.4193 I0.012 J0
G01 X1.399 Y0.4
(XXXXXX---->xCenter=1.408 Ycenter=0.408)
(XXXXXX---->AutoGenerated Compensation)
G01 Z0.1 F20
G00 X1.446 Y1.688
G01 Z-0.002
G01 X1.446 Y1.745 F15
G01 X1.421 Y1.745
G01 X1.421 Y0.411
G01 X1.446 Y0.386
G01 X1.446 Y0.428
G01 X1.428 Y0.428
G01 X1.428 Y0.588
G01 X1.488 Y0.588
G01 X1.488 Y0.428
G01 X1.471 Y0.428
G01 X1.471 Y0.358
G01 X1.47 Y0.358
(ZZZZZ---->GO2Arc)
G02 X1.462 Y0.3693 I-0.012 J0
G01 X1.449 Y0.35
(XXXXXX---->xCenter=1.458 Ycenter=0.358)
(XXXXXX---->AutoGenerated Compensation)
G01 Z0.1 F20
G00 X1.399 Y0.399
G01 Z-0.002
G01 X1.449 Y0.349 F15
G01 Z0.1 F20
G00 X1.59 Y1.645
G01 Z-0.002
G01 X1.732 Y1.645 F15
(ZZZZZ---->GO2Arc)
G03 X1.7871 Y1.658 I0.026 J0.013
G01 X1.787 Y1.658
(XXXXXX---->xCenter=1.758 Ycenter=1.658)
(XXXXXX---->AutoGenerated Compensation)
(ZZZZZ---->GO2Arc)
G03 X1.7835 Y1.6442 I-0.029 J0
G01 X1.732 Y1.67
(XXXXXX---->xCenter=1.758 Ycenter=1.658)
(XXXXXX---->AutoGenerated Compensation)
G01 X1.591 Y1.67
(ZZZZZ---->GO2Arc)
G03 X1.5899 Y1.6434 I-0.033 J-0.012
G01 X1.59 Y1.645
(XXXXXX---->xCenter=1.558 Ycenter=1.658)
(XXXXXX---->AutoGenerated Compensation)
G01 Z0.1 F20
G00 X1.818 Y0.898
G01 Z-0.002
G01 X1.878 Y0.898 F15
G01 X1.878 Y0.878
G01 X2.038 Y0.878
G01 X2.038 Y0.938
G01 X1.878 Y0.938
G01 X1.878 Y0.918
G01 X1.808 Y0.918
(ZZZZZ---->GO2Arc)
G03 X1.818 Y0.908 I0 J-0.01
G01 X1.798 Y0.908
(XXXXXX---->xCenter=1.808 Ycenter=0.9080001)
(XXXXXX---->AutoGenerated Compensation)
G01 X1.798 Y0.868
G01 X1.508 Y0.868
(ZZZZZ---->GO2Arc)
G03 X1.518 Y0.858 I0 J-0.01
G01 X1.498 Y0.858
(XXXXXX---->xCenter=1.508 Ycenter=0.858)
(XXXXXX---->AutoGenerated Compensation)
G01 X1.498 Y0.758
(ZZZZZ---->GO2Arc)
G03 X1.508 Y0.748 I0.01 J0
G01 X1.808 Y0.748
(ZZZZZ---->GO2Arc)
G03 X1.8081 Y0.748 I0 J0.01
G01 X1.815 Y0.751
(XXXXXX---->xCenter=1.808 Ycenter=0.758)
(XXXXXX---->AutoGenerated Compensation)
G01 X1.862 Y0.798
G01 X1.878 Y0.798
G01 X1.878 Y0.778
G01 X2.038 Y0.778
G01 X2.038 Y0.838
G01 X1.878 Y0.838
G01 X1.878 Y0.818
G01 X1.858 Y0.818
(ZZZZZ---->GO2Arc)
G03 X1.8581 Y0.798 I0 J-0.01
G01 X1.851 Y0.815
(XXXXXX---->xCenter=1.858 Ycenter=0.808)
(XXXXXX---->AutoGenerated Compensation)
G01 X1.804 Y0.768
G01 X1.518 Y0.768
G01 X1.518 Y0.848
G01 X1.808 Y0.848
(ZZZZZ---->GO2Arc)
G03 X1.818 Y0.858 I0 J0.01
G01 X1.818 Y0.898
G01 Z0.1 F20
G00 X1.858 Y1.098
G01 Z-0.002
G01 X1.878 Y1.098 F15
G01 X1.878 Y1.078
G01 X2.038 Y1.078
G01 X2.038 Y1.138
G01 X1.878 Y1.138
G01 X1.878 Y1.118
G01 X1.862 Y1.118
G01 X1.815 Y1.165
(ZZZZZ---->GO2Arc)
G03 X1.808 Y1.168 I-0.007 J-0.007
G01 X1.508 Y1.168
(ZZZZZ---->GO2Arc)
G03 X1.518 Y1.158 I0 J-0.01
G01 X1.498 Y1.158
(XXXXXX---->xCenter=1.508 Ycenter=1.158)
(XXXXXX---->AutoGenerated Compensation)
G01 X1.498 Y1.058
(ZZZZZ---->GO2Arc)
G03 X1.508 Y1.048 I0.01 J0
G01 X1.798 Y1.048
G01 X1.798 Y1.008
(ZZZZZ---->GO2Arc)
G03 X1.808 Y0.998 I0.01 J0
G01 X1.878 Y0.998
G01 X1.878 Y0.978
G01 X2.038 Y0.978
G01 X2.038 Y1.038
G01 X1.878 Y1.038
G01 X1.878 Y1.018
G01 X1.818 Y1.018
G01 X1.818 Y1.058
(ZZZZZ---->GO2Arc)
G03 X1.808 Y1.068 I-0.01 J0
G01 X1.518 Y1.068
G01 X1.518 Y1.148
G01 X1.804 Y1.148
G01 X1.851 Y1.101
(ZZZZZ---->GO2Arc)
G03 X1.858 Y1.098 I0.007 J0.007
G01 Z0.1 F20
G00 X0.728 Y0.128
G01 Z-0.002
G01 X0.788 Y0.128 F15
G01 X0.788 Y0.288
G01 X0.728 Y0.288
G01 X0.728 Y0.128
G01 Z0.1 F20
G00 X0.728 Y1.828
G01 Z-0.002
G01 X0.788 Y1.828 F15
G01 X0.788 Y1.988
G01 X0.728 Y1.988
G01 X0.728 Y1.828
G01 Z0.1 F20
G00 X0.828 Y0.128
G01 Z-0.002
G01 X0.888 Y0.128 F15
G01 X0.888 Y0.288
G01 X0.828 Y0.288
G01 X0.828 Y0.128
G01 Z0.1 F20
G00 X0.828 Y1.828
G01 Z-0.002
G01 X0.888 Y1.828 F15
G01 X0.888 Y1.988
G01 X0.828 Y1.988
G01 X0.828 Y1.828
G01 Z0.1 F20
G00 X0.928 Y0.128
G01 Z-0.002
G01 X0.988 Y0.128 F15
G01 X0.988 Y0.288
G01 X0.928 Y0.288
G01 X0.928 Y0.128
G01 Z0.1 F20
G00 X0.928 Y1.828
G01 Z-0.002
G01 X0.988 Y1.828 F15
G01 X0.988 Y1.988
G01 X0.928 Y1.988
G01 X0.928 Y1.828
G01 Z0.1 F20
G00 X1.028 Y0.128
G01 Z-0.002
G01 X1.088 Y0.128 F15
G01 X1.088 Y0.288
G01 X1.028 Y0.288
G01 X1.028 Y0.128
G01 Z0.1 F20
G00 X1.028 Y1.828
G01 Z-0.002
G01 X1.088 Y1.828 F15
G01 X1.088 Y1.988
G01 X1.028 Y1.988
G01 X1.028 Y1.828
G01 Z0.1 F20
G00 X1.128 Y0.128
G01 Z-0.002
G01 X1.188 Y0.128 F15
G01 X1.188 Y0.288
G01 X1.128 Y0.288
G01 X1.128 Y0.128
G01 Z0.1 F20
G00 X1.128 Y1.828
G01 Z-0.002
G01 X1.188 Y1.828 F15
G01 X1.188 Y1.988
G01 X1.128 Y1.988
G01 X1.128 Y1.828
G01 Z0.1 F20
G00 X1.228 Y0.128
G01 Z-0.002
G01 X1.288 Y0.128 F15
G01 X1.288 Y0.288
G01 X1.228 Y0.288
G01 X1.228 Y0.128
G01 Z0.1 F20
G00 X1.228 Y1.828
G01 Z-0.002
G01 X1.288 Y1.828 F15
G01 X1.288 Y1.988
G01 X1.228 Y1.988
G01 X1.228 Y1.828
G01 Z0.1 F20
G00 X1.328 Y0.128
G01 Z-0.002
G01 X1.388 Y0.128 F15
G01 X1.388 Y0.288
G01 X1.328 Y0.288
G01 X1.328 Y0.128
G01 Z0.1 F20
G00 X1.328 Y1.828
G01 Z-0.002
G01 X1.388 Y1.828 F15
G01 X1.388 Y1.988
G01 X1.328 Y1.988
G01 X1.328 Y1.828
G01 Z0.1 F20
G00 X1.428 Y0.128
G01 Z-0.002
G01 X1.488 Y0.128 F15
G01 X1.488 Y0.288
G01 X1.428 Y0.288
G01 X1.428 Y0.128
G01 Z0.1 F20
G00 X1.428 Y1.528
G01 Z-0.002
G01 X1.488 Y1.528 F15
G01 X1.488 Y1.688
G01 X1.471 Y1.688
G01 Z0.1 F20
G00 X1.428 Y1.688
G01 Z-0.002
G01 X1.446 Y1.688 F15
G01 Z0.1 F20
G00 X1.428 Y1.528
G01 Z-0.002
G01 X1.428 Y1.688 F15
G01 Z0.1 F20
G00 X1.428 Y1.828
G01 Z-0.002
G01 X1.488 Y1.828 F15
G01 X1.488 Y1.988
G01 X1.428 Y1.988
G01 X1.428 Y1.828
G01 Z0.1 F20
G00 X0.128 Y0.678
G01 Z-0.002
G01 X0.288 Y0.678 F15
G01 X0.288 Y0.738
G01 X0.128 Y0.738
G01 X0.128 Y0.678
G01 Z0.1 F20
G00 X0.128 Y0.778
G01 Z-0.002
G01 X0.288 Y0.778 F15
G01 X0.288 Y0.838
G01 X0.128 Y0.838
G01 X0.128 Y0.778
G01 Z0.1 F20
G00 X0.128 Y0.878
G01 Z-0.002
G01 X0.288 Y0.878 F15
G01 X0.288 Y0.938
G01 X0.128 Y0.938
G01 X0.128 Y0.878
G01 Z0.1 F20
G00 X0.128 Y0.978
G01 Z-0.002
G01 X0.288 Y0.978 F15
G01 X0.288 Y1.038
G01 X0.128 Y1.038
G01 X0.128 Y0.978
G01 Z0.1 F20
G00 X0.128 Y1.078
G01 Z-0.002
G01 X0.288 Y1.078 F15
G01 X0.288 Y1.138
G01 X0.128 Y1.138
G01 X0.128 Y1.078
G01 Z0.1 F20
G00 X0.128 Y1.178
G01 Z-0.002
G01 X0.288 Y1.178 F15
G01 X0.288 Y1.238
G01 X0.128 Y1.238
G01 X0.128 Y1.178
G01 Z0.1 F20
G00 X0.128 Y1.278
G01 Z-0.002
G01 X0.288 Y1.278 F15
G01 X0.288 Y1.338
G01 X0.128 Y1.338
G01 X0.128 Y1.278
G01 Z0.1 F20
G00 X0.128 Y1.378
G01 Z-0.002
G01 X0.288 Y1.378 F15
G01 X0.288 Y1.438
G01 X0.128 Y1.438
G01 X0.128 Y1.378
G01 Z0.1 F20
G00 X0.428 Y0.678
G01 Z-0.002
G01 X0.588 Y0.678 F15
G01 X0.588 Y0.738
G01 X0.428 Y0.738
G01 X0.428 Y0.678
G01 Z0.1 F20
G00 X0.428 Y0.778
G01 Z-0.002
G01 X0.588 Y0.778 F15
G01 X0.588 Y0.838
G01 X0.428 Y0.838
G01 X0.428 Y0.778
G01 Z0.1 F20
G00 X0.428 Y0.878
G01 Z-0.002
G01 X0.588 Y0.878 F15
G01 X0.588 Y0.938
G01 X0.428 Y0.938
G01 X0.428 Y0.878
G01 Z0.1 F20
G00 X0.428 Y0.978
G01 Z-0.002
G01 X0.588 Y0.978 F15
G01 X0.588 Y1.038
G01 X0.428 Y1.038
G01 X0.428 Y0.978
G01 Z0.1 F20
G00 X0.428 Y1.078
G01 Z-0.002
G01 X0.588 Y1.078 F15
G01 X0.588 Y1.138
G01 X0.428 Y1.138
G01 X0.428 Y1.078
G01 Z0.1 F20
G00 X0.428 Y1.178
G01 Z-0.002
G01 X0.588 Y1.178 F15
G01 X0.588 Y1.238
G01 X0.428 Y1.238
G01 X0.428 Y1.178
G01 Z0.1 F20
G00 X0.428 Y1.278
G01 Z-0.002
G01 X0.588 Y1.278 F15
G01 X0.588 Y1.338
G01 X0.428 Y1.338
G01 X0.428 Y1.278
G01 Z0.1 F20
G00 X0.428 Y1.378
G01 Z-0.002
G01 X0.588 Y1.378 F15
G01 X0.588 Y1.438
G01 X0.428 Y1.438
G01 X0.428 Y1.378
G01 Z0.1 F20
G00 X1.578 Y0.678
G01 Z-0.002
G01 X1.738 Y0.678 F15
G01 X1.738 Y0.738
G01 X1.578 Y0.738
G01 X1.578 Y0.678
G01 Z0.1 F20
G00 X1.578 Y0.778
G01 Z-0.002
G01 X1.738 Y0.778 F15
G01 X1.738 Y0.838
G01 X1.578 Y0.838
G01 X1.578 Y0.778
G01 Z0.1 F20
G00 X1.578 Y0.878
G01 Z-0.002
G01 X1.738 Y0.878 F15
G01 X1.738 Y0.938
G01 X1.578 Y0.938
G01 X1.578 Y0.878
G01 Z0.1 F20
G00 X1.578 Y0.978
G01 Z-0.002
G01 X1.738 Y0.978 F15
G01 X1.738 Y1.038
G01 X1.578 Y1.038
G01 X1.578 Y0.978
G01 Z0.1 F20
G00 X1.578 Y1.078
G01 Z-0.002
G01 X1.738 Y1.078 F15
G01 X1.738 Y1.138
G01 X1.578 Y1.138
G01 X1.578 Y1.078
G01 Z0.1 F20
G00 X1.578 Y1.178
G01 Z-0.002
G01 X1.738 Y1.178 F15
G01 X1.738 Y1.238
G01 X1.578 Y1.238
G01 X1.578 Y1.178
G01 Z0.1 F20
G00 X1.578 Y1.278
G01 Z-0.002
G01 X1.738 Y1.278 F15
G01 X1.738 Y1.338
G01 X1.578 Y1.338
G01 X1.578 Y1.278
G01 Z0.1 F20
G00 X1.578 Y1.378
G01 Z-0.002
G01 X1.738 Y1.378 F15
G01 X1.738 Y1.438
G01 X1.578 Y1.438
G01 X1.578 Y1.378
G01 Z0.1 F20
G00 X1.878 Y0.678
G01 Z-0.002
G01 X2.038 Y0.678 F15
G01 X2.038 Y0.738
G01 X1.878 Y0.738
G01 X1.878 Y0.678
G01 Z0.1 F20
G00 X1.878 Y1.178
G01 Z-0.002
G01 X2.038 Y1.178 F15
G01 X2.038 Y1.238
G01 X1.878 Y1.238
G01 X1.878 Y1.178
G01 Z0.1 F20
G00 X1.878 Y1.278
G01 Z-0.002
G01 X2.038 Y1.278 F15
G01 X2.038 Y1.338
G01 X1.878 Y1.338
G01 X1.878 Y1.278
G01 Z0.1 F20
G00 X1.878 Y1.378
G01 Z-0.002
G01 X2.038 Y1.378 F15
G01 X2.038 Y1.438
G01 X1.878 Y1.438
G01 X1.878 Y1.378
(ZZZZZ---->GO2Arc)
G01 Z0.1 F20
G00 X0.693 Y0.458
G01 Z-0.002
G03 X0.693 Y0.458 I-0.035 J0 F15
(ZZZZZ---->GO2Arc)
G01 Z0.1 F20
G00 X1.593 Y1.758
G01 Z-0.002
G03 X1.593 Y1.758 I-0.035 J0 F15
(ZZZZZ---->GO2Arc)
G01 Z0.1 F20
G00 X1.593 Y1.858
G01 Z-0.002
G03 X1.593 Y1.858 I-0.035 J0 F15
(ZZZZZ---->GO2Arc)
G01 Z0.1 F20
G00 X1.593 Y1.958
G01 Z-0.002
G03 X1.593 Y1.958 I-0.035 J0 F15
(ZZZZZ---->GO2Arc)
G01 Z0.1 F20
G00 X1.693 Y0.358
G01 Z-0.002
G03 X1.693 Y0.358 I-0.035 J0 F15
(ZZZZZ---->GO2Arc)
G01 Z0.1 F20
G00 X1.743 Y1.558
G01 Z-0.002
G03 X1.743 Y1.558 I-0.035 J0 F15
(ZZZZZ---->GO2Arc)
G01 Z0.1 F20
G00 X1.793 Y0.508
G01 Z-0.002
G03 X1.793 Y0.508 I-0.035 J0 F15
(ZZZZZ---->GO2Arc)
G01 Z0.1 F20
G00 X1.843 Y1.558
G01 Z-0.002
G03 X1.843 Y1.558 I-0.035 J0 F15
(ZZZZZ---->GO2Arc)
G01 Z0.1 F20
G00 X1.943 Y1.558
G01 Z-0.002
G03 X1.943 Y1.558 I-0.035 J0 F15
(ZZZZZ---->GO2Arc)
G01 Z0.1 F20
G00 X1.993 Y0.558
G01 Z-0.002
G03 X1.993 Y0.558 I-0.035 J0 F15
(ZZZZZ---->GO2Arc)
G01 Z0.1 F20
G00 X2.043 Y1.558
G01 Z-0.002
G03 X2.043 Y1.558 I-0.035 J0 F15
(... pad touchdown start ...)
G00 Z0.25
G00 X0.158 Y0.608
G01 Z-0.005 F20
G04 P0.25
G00 Z0.25
G00 X0.158 Y1.758
G01 Z-0.005
G04 P0.25
G00 Z0.25
G00 X0.258 Y0.608
G01 Z-0.005
G04 P0.25
G00 Z0.25
G00 X0.308 Y1.708
G01 Z-0.005
G04 P0.25
G00 Z0.25
G00 X0.358 Y0.608
G01 Z-0.005
G04 P0.25
G00 Z0.25
G00 X0.458 Y0.608
G01 Z-0.005
G04 P0.25
G00 Z0.25
G00 X0.558 Y1.758
G01 Z-0.005
G04 P0.25
G00 Z0.25
G00 X0.658 Y0.158
G01 Z-0.005
G04 P0.25
G00 Z0.25
G00 X0.658 Y0.258
G01 Z-0.005
G04 P0.25
G00 Z0.25
G00 X0.658 Y0.358
G01 Z-0.005
G04 P0.25
G00 Z0.25
G00 X0.658 Y0.458
G01 Z-0.005
G04 P0.25
G00 Z0.25
G00 X1.558 Y1.658
G01 Z-0.005
G04 P0.25
G00 Z0.25
G00 X1.558 Y1.758
G01 Z-0.005
G04 P0.25
G00 Z0.25
G00 X1.558 Y1.858
G01 Z-0.005
G04 P0.25
G00 Z0.25
G00 X1.558 Y1.958
G01 Z-0.005
G04 P0.25
G00 Z0.25
G00 X1.658 Y0.358
G01 Z-0.005
G04 P0.25
G00 Z0.25
G00 X1.708 Y1.558
G01 Z-0.005
G04 P0.25
G00 Z0.25
G00 X1.758 Y0.508
G01 Z-0.005
G04 P0.25
G00 Z0.25
G00 X1.808 Y1.558
G01 Z-0.005
G04 P0.25
G00 Z0.25
G00 X1.908 Y1.558
G01 Z-0.005
G04 P0.25
G00 Z0.25
G00 X1.958 Y0.558
G01 Z-0.005
G04 P0.25
G00 Z0.25
G00 X2.008 Y1.558
G01 Z-0.005
G04 P0.25
G00 Z0.25
G00 X0.758 Y0.208
G01 Z-0.005
G04 P0.25
G00 Z0.25
G00 X0.758 Y0.508
G01 Z-0.005
G04 P0.25
G00 Z0.25
G00 X0.758 Y1.608
G01 Z-0.005
G04 P0.25
G00 Z0.25
G00 X0.758 Y1.908
G01 Z-0.005
G04 P0.25
G00 Z0.25
G00 X0.858 Y0.208
G01 Z-0.005
G04 P0.25
G00 Z0.25
G00 X0.858 Y0.508
G01 Z-0.005
G04 P0.25
G00 Z0.25
G00 X0.858 Y1.608
G01 Z-0.005
G04 P0.25
G00 Z0.25
G00 X0.858 Y1.908
G01 Z-0.005
G04 P0.25
G00 Z0.25
G00 X0.958 Y0.208
G01 Z-0.005
G04 P0.25
G00 Z0.25
G00 X0.958 Y0.508
G01 Z-0.005
G04 P0.25
G00 Z0.25
G00 X0.958 Y1.608
G01 Z-0.005
G04 P0.25
G00 Z0.25
G00 X0.958 Y1.908
G01 Z-0.005
G04 P0.25
G00 Z0.25
G00 X1.058 Y0.208
G01 Z-0.005
G04 P0.25
G00 Z0.25
G00 X1.058 Y0.508
G01 Z-0.005
G04 P0.25
G00 Z0.25
G00 X1.058 Y1.608
G01 Z-0.005
G04 P0.25
G00 Z0.25
G00 X1.058 Y1.908
G01 Z-0.005
G04 P0.25
G00 Z0.25
G00 X1.158 Y0.208
G01 Z-0.005
G04 P0.25
G00 Z0.25
G00 X1.158 Y0.508
G01 Z-0.005
G04 P0.25
G00 Z0.25
G00 X1.158 Y1.608
G01 Z-0.005
G04 P0.25
G00 Z0.25
G00 X1.158 Y1.908
G01 Z-0.005
G04 P0.25
G00 Z0.25
G00 X1.258 Y0.208
G01 Z-0.005
G04 P0.25
G00 Z0.25
G00 X1.258 Y0.508
G01 Z-0.005
G04 P0.25
G00 Z0.25
G00 X1.258 Y1.608
G01 Z-0.005
G04 P0.25
G00 Z0.25
G00 X1.258 Y1.908
G01 Z-0.005
G04 P0.25
G00 Z0.25
G00 X1.358 Y0.208
G01 Z-0.005
G04 P0.25
G00 Z0.25
G00 X1.358 Y0.508
G01 Z-0.005
G04 P0.25
G00 Z0.25
G00 X1.358 Y1.608
G01 Z-0.005
G04 P0.25
G00 Z0.25
G00 X1.358 Y1.908
G01 Z-0.005
G04 P0.25
G00 Z0.25
G00 X1.458 Y0.208
G01 Z-0.005
G04 P0.25
G00 Z0.25
G00 X1.458 Y0.508
G01 Z-0.005
G04 P0.25
G00 Z0.25
G00 X1.458 Y1.608
G01 Z-0.005
G04 P0.25
G00 Z0.25
G00 X1.458 Y1.908
G01 Z-0.005
G04 P0.25
G00 Z0.25
G00 X0.208 Y0.708
G01 Z-0.005
G04 P0.25
G00 Z0.25
G00 X0.208 Y0.808
G01 Z-0.005
G04 P0.25
G00 Z0.25
G00 X0.208 Y0.908
G01 Z-0.005
G04 P0.25
G00 Z0.25
G00 X0.208 Y1.008
G01 Z-0.005
G04 P0.25
G00 Z0.25
G00 X0.208 Y1.108
G01 Z-0.005
G04 P0.25
G00 Z0.25
G00 X0.208 Y1.208
G01 Z-0.005
G04 P0.25
G00 Z0.25
G00 X0.208 Y1.308
G01 Z-0.005
G04 P0.25
G00 Z0.25
G00 X0.208 Y1.408
G01 Z-0.005
G04 P0.25
G00 Z0.25
G00 X0.508 Y0.708
G01 Z-0.005
G04 P0.25
G00 Z0.25
G00 X0.508 Y0.808
G01 Z-0.005
G04 P0.25
G00 Z0.25
G00 X0.508 Y0.908
G01 Z-0.005
G04 P0.25
G00 Z0.25
G00 X0.508 Y1.008
G01 Z-0.005
G04 P0.25
G00 Z0.25
G00 X0.508 Y1.108
G01 Z-0.005
G04 P0.25
G00 Z0.25
G00 X0.508 Y1.208
G01 Z-0.005
G04 P0.25
G00 Z0.25
G00 X0.508 Y1.308
G01 Z-0.005
G04 P0.25
G00 Z0.25
G00 X0.508 Y1.408
G01 Z-0.005
G04 P0.25
G00 Z0.25
G00 X1.658 Y0.708
G01 Z-0.005
G04 P0.25
G00 Z0.25
G00 X1.658 Y0.808
G01 Z-0.005
G04 P0.25
G00 Z0.25
G00 X1.658 Y0.908
G01 Z-0.005
G04 P0.25
G00 Z0.25
G00 X1.658 Y1.008
G01 Z-0.005
G04 P0.25
G00 Z0.25
G00 X1.658 Y1.108
G01 Z-0.005
G04 P0.25
G00 Z0.25
G00 X1.658 Y1.208
G01 Z-0.005
G04 P0.25
G00 Z0.25
G00 X1.658 Y1.308
G01 Z-0.005
G04 P0.25
G00 Z0.25
G00 X1.658 Y1.408
G01 Z-0.005
G04 P0.25
G00 Z0.25
G00 X1.958 Y0.708
G01 Z-0.005
G04 P0.25
G00 Z0.25
G00 X1.958 Y0.808
G01 Z-0.005
G04 P0.25
G00 Z0.25
G00 X1.958 Y0.908
G01 Z-0.005
G04 P0.25
G00 Z0.25
G00 X1.958 Y1.008
G01 Z-0.005
G04 P0.25
G00 Z0.25
G00 X1.958 Y1.108
G01 Z-0.005
G04 P0.25
G00 Z0.25
G00 X1.958 Y1.208
G01 Z-0.005
G04 P0.25
G00 Z0.25
G00 X1.958 Y1.308
G01 Z-0.005
G04 P0.25
G00 Z0.25
G00 X1.958 Y1.408
G01 Z-0.005
G04 P0.25
G00 Z0.25
G00 X0.608 Y0.408
G01 Z-0.005
G04 P0.25
G00 Z0.25
G00 X1.758 Y1.658
G01 Z-0.005
G04 P0.25
G00 Z0.25
(... pad touchdown end ...)
G00 Z0.25
G00 X0 Y0
M05 (Stop spindle)
M02 (Program End)

