(Generated By: Line Grinder Version: 01.03)
(Home Page: http://www.OfItselfSo.com/LineGrinder/LineGrinder.php)
(Generated from file: C:\Projects\LineGrinder - Template\Examples - DesignSpark\LGTest - Top Copper.gbr)
(Date Generated: Monday, 14 March 2011 14:49)

(The Line Grinder software is released under the MIT License. There)
(is no warranty or guarantee that the GCode files it produces)
(are without error. You use it, and run its output code entirely)
(at your own risk. In particular: )

(THE LINE GRINDER SOFTWARE, AND THE OUTPUT CODE IT GENERATES, ARE )
(PROVIDED "AS IS", WITHOUT WARRANTY OF ANY KIND, EXPRESS OR )
(IMPLIED, INCLUDING BUT NOT LIMITED TO THE WARRANTIES OF )
(MERCHANTABILITY, FITNESS FOR A PARTICULAR PURPOSE AND )
(NONINFRINGEMENT. IN NO EVENT SHALL THE AUTHORS OR COPYRIGHT )
(HOLDERS BE LIABLE FOR ANY CLAIM, DAMAGES OR OTHER LIABILITY, )
(WHETHER IN AN ACTION OF CONTRACT, TORT OR OTHERWISE, ARISING )
(FROM, OUT OF OR IN CONNECTION WITH THE SOFTWARE OR ITS OUTPUT)
(OR FROM THE USE OR OTHER DEALINGS IN THE SOFTWARE. )

G20 (Use Inches)
G90 (Set Absolute Coordinates)
G17 (XY plane selection)
G00 Z0.25
G00 X0 Y0
M03 (Start spindle)
G04 P1 (Pause to let the spindle start)
G00 X0.158 Y0.158
G01 Z-0.3 F20
G04 P0.25
G00 Z0.25
G00 X0.158 Y1.958
G01 Z-0.3
G04 P0.25
G00 Z0.25
G00 X1.958 Y0.158
G01 Z-0.3
G04 P0.25
G00 Z0.25
G00 X1.958 Y1.958
G01 Z-0.3
G04 P0.25
G00 Z0.25
G00 Z0.25
G00 X0 Y0
M05 (Stop spindle)
M02 (Program End)

