(Generated By: Line Grinder Version: 01.03)
(Home Page: http://www.OfItselfSo.com/LineGrinder/LineGrinder.php)
(Generated from file: C:\Projects\LineGrinder - Template\Examples - DesignSpark\LGTest2 - Top Copper.gbr)
(Date Generated: Tuesday, 15 March 2011 10:51)

(The Line Grinder software is released under the MIT License. There)
(is no warranty or guarantee that the GCode files it produces)
(are without error. You use it, and run its output code entirely)
(at your own risk. In particular: )

(THE LINE GRINDER SOFTWARE, AND THE OUTPUT CODE IT GENERATES, ARE )
(PROVIDED "AS IS", WITHOUT WARRANTY OF ANY KIND, EXPRESS OR )
(IMPLIED, INCLUDING BUT NOT LIMITED TO THE WARRANTIES OF )
(MERCHANTABILITY, FITNESS FOR A PARTICULAR PURPOSE AND )
(NONINFRINGEMENT. IN NO EVENT SHALL THE AUTHORS OR COPYRIGHT )
(HOLDERS BE LIABLE FOR ANY CLAIM, DAMAGES OR OTHER LIABILITY, )
(WHETHER IN AN ACTION OF CONTRACT, TORT OR OTHERWISE, ARISING )
(FROM, OUT OF OR IN CONNECTION WITH THE SOFTWARE OR ITS OUTPUT)
(OR FROM THE USE OR OTHER DEALINGS IN THE SOFTWARE. )

G20 (Use Inches)
G90 (Set Absolute Coordinates)
G17 (XY plane selection)
G00 Z0.25
G00 X0 Y0
M03 (Start spindle)
G04 P1 (Pause to let the spindle start)
G00 X0.133 Y0.103
G01 Z-0.002 F20
G01 X0.133 Y1.641 F15
G01 X0.265 Y1.773
G01 X1.691 Y1.773
G01 X1.873 Y1.591
G01 X1.873 Y0.283
G01 X0.233 Y0.283
G01 X0.233 Y1.573
G01 X1.673 Y1.573
G01 X1.673 Y0.383
G01 X0.333 Y0.383
G01 X0.333 Y1.473
G01 X1.573 Y1.473
G01 X1.573 Y0.615
G01 X1.441 Y0.483
G01 X0.514 Y0.483
G01 X0.433 Y0.565
G01 X0.433 Y1.291
G01 X0.514 Y1.373
G01 X1.341 Y1.373
G01 X1.473 Y1.24
G01 X1.473 Y0.683
G01 X0.532 Y0.683
G01 X0.532 Y1.222
G01 X1.323 Y1.222
G01 X1.323 Y0.783
G01 X0.633 Y0.783
G01 X0.633 Y1.123
G01 X0.841 Y1.123
G01 X0.981 Y0.981
(ZZZZZ---->GO2Arc)
G03 X1.0317 Y1.002 I0.021 J0.021
G01 X1.032 Y1.002
(XXXXXX---->xCenter=1.002 Ycenter=1.002)
(XXXXXX---->AutoGenerated Compensation)
(ZZZZZ---->GO2Arc)
G03 X1.0232 Y1.0232 I-0.03 J0
G01 X1.023 Y1.023
(XXXXXX---->xCenter=1.002 Ycenter=1.002)
(XXXXXX---->AutoGenerated Compensation)
G01 X0.874 Y1.174
(ZZZZZ---->GO2Arc)
G03 X0.853 Y1.183 I-0.021 J-0.021
G01 X0.603 Y1.183
(ZZZZZ---->GO2Arc)
G03 X0.573 Y1.153 I0 J-0.03
G01 X0.573 Y0.753
(ZZZZZ---->GO2Arc)
G03 X0.603 Y0.723 I0.03 J0
G01 X1.353 Y0.723
(ZZZZZ---->GO2Arc)
G03 X1.383 Y0.753 I0 J0.03
G01 X1.383 Y1.252
(ZZZZZ---->GO2Arc)
G03 X1.353 Y1.282 I-0.03 J0
G01 X0.502 Y1.282
(ZZZZZ---->GO2Arc)
G03 X0.472 Y1.252 I0 J-0.03
G01 X0.472 Y0.653
(ZZZZZ---->GO2Arc)
G03 X0.502 Y0.623 I0.03 J0
G01 X1.503 Y0.623
(ZZZZZ---->GO2Arc)
G03 X1.533 Y0.653 I0 J0.03
G01 X1.533 Y1.252
(ZZZZZ---->GO2Arc)
G03 X1.5242 Y1.2732 I-0.03 J0
G01 X1.524 Y1.273
(XXXXXX---->xCenter=1.503 Ycenter=1.252)
(XXXXXX---->AutoGenerated Compensation)
G01 X1.374 Y1.424
(ZZZZZ---->GO2Arc)
G03 X1.353 Y1.433 I-0.021 J-0.021
G01 X0.502 Y1.433
(ZZZZZ---->GO2Arc)
G03 X0.4808 Y1.4242 I0 J-0.03
G01 X0.481 Y1.424
(XXXXXX---->xCenter=0.502 Ycenter=1.403)
(XXXXXX---->AutoGenerated Compensation)
G01 X0.382 Y1.324
(ZZZZZ---->GO2Arc)
G03 X0.3733 Y1.303 I0.021 J-0.021
G01 X0.373 Y1.303
(XXXXXX---->xCenter=0.403 Ycenter=1.303)
(XXXXXX---->AutoGenerated Compensation)
G01 X0.373 Y0.553
(ZZZZZ---->GO2Arc)
G03 X0.3818 Y0.5318 I0.03 J0
G01 X0.382 Y0.532
(XXXXXX---->xCenter=0.403 Ycenter=0.553)
(XXXXXX---->AutoGenerated Compensation)
G01 X0.481 Y0.432
(ZZZZZ---->GO2Arc)
G03 X0.502 Y0.423 I0.021 J0.021
G01 X1.453 Y0.423
(ZZZZZ---->GO2Arc)
G03 X1.4742 Y0.4318 I0 J0.03
G01 X1.474 Y0.432
(XXXXXX---->xCenter=1.453 Ycenter=0.453)
(XXXXXX---->AutoGenerated Compensation)
G01 X1.624 Y0.582
(ZZZZZ---->GO2Arc)
G03 X1.6327 Y0.603 I-0.021 J0.021
G01 X1.633 Y0.603
(XXXXXX---->xCenter=1.603 Ycenter=0.603)
(XXXXXX---->AutoGenerated Compensation)
G01 X1.633 Y1.503
(ZZZZZ---->GO2Arc)
G03 X1.603 Y1.533 I-0.03 J0
G01 X0.303 Y1.533
(ZZZZZ---->GO2Arc)
G03 X0.273 Y1.503 I0 J-0.03
G01 X0.273 Y0.353
(ZZZZZ---->GO2Arc)
G03 X0.303 Y0.323 I0.03 J0
G01 X1.703 Y0.323
(ZZZZZ---->GO2Arc)
G03 X1.733 Y0.353 I0 J0.03
G01 X1.733 Y1.603
(ZZZZZ---->GO2Arc)
G03 X1.703 Y1.633 I-0.03 J0
G01 X0.203 Y1.633
(ZZZZZ---->GO2Arc)
G03 X0.173 Y1.603 I0 J-0.03
G01 X0.173 Y0.253
(ZZZZZ---->GO2Arc)
G03 X0.203 Y0.223 I0.03 J0
G01 X1.903 Y0.223
(ZZZZZ---->GO2Arc)
G03 X1.933 Y0.253 I0 J0.03
G01 X1.933 Y1.603
(ZZZZZ---->GO2Arc)
G03 X1.9242 Y1.6242 I-0.03 J0
G01 X1.924 Y1.624
(XXXXXX---->xCenter=1.903 Ycenter=1.603)
(XXXXXX---->AutoGenerated Compensation)
G01 X1.724 Y1.824
(ZZZZZ---->GO2Arc)
G03 X1.703 Y1.833 I-0.021 J-0.021
G01 X0.253 Y1.833
(ZZZZZ---->GO2Arc)
G03 X0.2318 Y1.8242 I0 J-0.03
G01 X0.232 Y1.824
(XXXXXX---->xCenter=0.253 Ycenter=1.803)
(XXXXXX---->AutoGenerated Compensation)
G01 X0.082 Y1.674
(ZZZZZ---->GO2Arc)
G03 X0.0733 Y1.653 I0.021 J-0.021
G01 X0.073 Y1.653
(XXXXXX---->xCenter=0.103 Ycenter=1.653)
(XXXXXX---->AutoGenerated Compensation)
G01 X0.073 Y0.103
(ZZZZZ---->GO2Arc)
G03 X0.133 Y0.103 I0.03 J0
(... pad touchdown start ...)
(... pad touchdown end ...)
G00 Z0.25
G00 X0 Y0
M05 (Stop spindle)
M02 (Program End)

