(Generated By: Line Grinder Version: 01.03)
(Home Page: http://www.OfItselfSo.com/LineGrinder/LineGrinder.php)
(Generated from file: C:\Projects\LineGrinder - Template\Examples - DesignSpark\LGTest - Board Outline.gbr)
(Date Generated: Monday, 14 March 2011 14:12)

(The Line Grinder software is released under the MIT License. There)
(is no warranty or guarantee that the GCode files it produces)
(are without error. You use it, and run its output code entirely)
(at your own risk. In particular: )

(THE LINE GRINDER SOFTWARE, AND THE OUTPUT CODE IT GENERATES, ARE )
(PROVIDED "AS IS", WITHOUT WARRANTY OF ANY KIND, EXPRESS OR )
(IMPLIED, INCLUDING BUT NOT LIMITED TO THE WARRANTIES OF )
(MERCHANTABILITY, FITNESS FOR A PARTICULAR PURPOSE AND )
(NONINFRINGEMENT. IN NO EVENT SHALL THE AUTHORS OR COPYRIGHT )
(HOLDERS BE LIABLE FOR ANY CLAIM, DAMAGES OR OTHER LIABILITY, )
(WHETHER IN AN ACTION OF CONTRACT, TORT OR OTHERWISE, ARISING )
(FROM, OUT OF OR IN CONNECTION WITH THE SOFTWARE OR ITS OUTPUT)
(OR FROM THE USE OR OTHER DEALINGS IN THE SOFTWARE. )

G20 (Use Inches)
G90 (Set Absolute Coordinates)
G17 (XY plane selection)
G00 Z0.25
G00 X0 Y0
M03 (Start spindle)
G04 P1 (Pause to let the spindle start)
(... start ...)
G00 X2.373 Y2.372
G01 Z-0.025 F20
G01 X2.373 Y-0.257 F30
G01 X-0.256 Y-0.257
G01 X-0.256 Y2.372
G01 X2.373 Y2.372
(... pass ...)
G01 X2.123 Y2.122
G01 X2.123 Y-0.007
G01 X-0.006 Y-0.007
G01 X-0.006 Y2.122
G01 X2.123 Y2.122
(... pass ...)
G01 X1.873 Y1.872
G01 X1.873 Y0.243
G01 X0.244 Y0.243
G01 X0.244 Y1.872
G01 X1.873 Y1.872
(... pass ...)
G01 X1.623 Y1.622
G01 X1.623 Y0.493
G01 X0.494 Y0.493
G01 X0.494 Y1.622
G01 X1.623 Y1.622
(... pass ...)
G01 X1.373 Y1.372
G01 X1.373 Y0.743
G01 X0.744 Y0.743
G01 X0.744 Y1.372
G01 X1.373 Y1.372
(... pass ...)
G01 X1.123 Y1.122
G01 X1.123 Y0.993
G01 X0.994 Y0.993
G01 X0.994 Y1.122
G01 X1.123 Y1.122
G01 X0.873 Y1.243
G01 Z0.25 F20
G00 X0.873 Y0.872
G01 Z-0.025
G01 X0.873 Y1.243 F30
(... end ...)
G00 Z0.25
G00 X0 Y0
M05 (Stop spindle)
M02 (Program End)

