(Generated By: Line Grinder Version: 01.03)
(Home Page: http://www.OfItselfSo.com/LineGrinder/LineGrinder.php)
(Generated from file: C:\Projects\LineGrinder - Template\Examples - DesignSpark\LGTest - Board Outline.gbr)
(Date Generated: Monday, 14 March 2011 15:45)

(The Line Grinder software is released under the MIT License. There)
(is no warranty or guarantee that the GCode files it produces)
(are without error. You use it, and run its output code entirely)
(at your own risk. In particular: )

(THE LINE GRINDER SOFTWARE, AND THE OUTPUT CODE IT GENERATES, ARE )
(PROVIDED "AS IS", WITHOUT WARRANTY OF ANY KIND, EXPRESS OR )
(IMPLIED, INCLUDING BUT NOT LIMITED TO THE WARRANTIES OF )
(MERCHANTABILITY, FITNESS FOR A PARTICULAR PURPOSE AND )
(NONINFRINGEMENT. IN NO EVENT SHALL THE AUTHORS OR COPYRIGHT )
(HOLDERS BE LIABLE FOR ANY CLAIM, DAMAGES OR OTHER LIABILITY, )
(WHETHER IN AN ACTION OF CONTRACT, TORT OR OTHERWISE, ARISING )
(FROM, OUT OF OR IN CONNECTION WITH THE SOFTWARE OR ITS OUTPUT)
(OR FROM THE USE OR OTHER DEALINGS IN THE SOFTWARE. )

G20 (Use Inches)
G90 (Set Absolute Coordinates)
G17 (XY plane selection)
G00 Z0.25
G00 X0 Y0
M03 (Start spindle)
G04 P1 (Pause to let the spindle start)
G00 X0.058 Y0.025
G01 Z-0.2 F10
G01 X0.058 Y0.026 F5
(ZZZZZ---->GO2Arc)
G02 X0.09 Y0.058 I0 J0.032
G01 X0.026 Y0.058
(XXXXXX---->xCenter=0.05799999 Ycenter=0.05799999)
(XXXXXX---->AutoGenerated Compensation)
G01 X0.026 Y0.966
G01 Z0.1 F10
G00 X0.026 Y1.15
G01 Z-0.2
G01 X0.026 Y2.058 F5
(ZZZZZ---->GO2Arc)
G02 X0.058 Y2.09 I0.032 J0
G01 X0.966 Y2.09
G01 Z0.1 F10
G00 X1.15 Y2.09
G01 Z-0.2
G01 X2.058 Y2.09 F5
(ZZZZZ---->GO2Arc)
G02 X2.09 Y2.058 I0 J-0.032
G01 X2.091 Y2.058
G01 X2.091 Y1.151
G01 Z0.1 F10
G00 X2.091 Y0.966
G01 Z-0.2
G01 X2.091 Y0.058 F5
G01 X2.09 Y0.058
(ZZZZZ---->GO2Arc)
G02 X2.058 Y0.026 I-0.032 J0
G01 X2.058 Y0.025
G01 X1.151 Y0.025
G01 Z0.1 F10
G00 X0.966 Y0.025
G01 Z-0.2
G01 X0.058 Y0.025 F5
G00 Z0.25
G00 X0 Y0
M05 (Stop spindle)
M02 (Program End)

